; generated by Slic3r Prusa Edition 1.41.3+win64 on 2019-03-14 at 10:55:44

; 

; external perimeters extrusion width = 0.45mm
; perimeters extrusion width = 0.45mm
; infill extrusion width = 0.45mm
; solid infill extrusion width = 0.45mm
; top infill extrusion width = 0.40mm
; first layer extrusion width = 0.42mm

M73 P0 R25
M73 Q0 S25
M201 X1000 Y1000 Z1000 E5000 ; sets maximum accelerations, mm/sec^2
M203 X200 Y200 Z12 E120 ; sets maximum feedrates, mm/sec
M204 P1250 R1250 T1250 ; sets acceleration (P, T) and retract acceleration (R), mm/sec^2
M205 X8.00 Y8.00 Z0.40 E1.50 ; sets the jerk limits, mm/sec
M205 S0 T0 ; sets the minimum extruding and travel feed rate, mm/sec
M107
M115 U3.6.0 ; tell printer latest fw version
M83  ; extruder relative mode
M104 S215 ; set extruder temp
M140 S60 ; set bed temp
M190 S60 ; wait for bed temp
M109 S215 ; wait for extruder temp
G28 W ; home all without mesh bed level
G80 ; mesh bed leveling
G1 Y-3.0 F1000.0 ; go outside print area
G92 E0.0
G1 X60.0 E9.0  F1000.0 ; intro line
M73 Q0 S25
M73 P0 R25
G1 X100.0 E12.5  F1000.0 ; intro line
G92 E0.0
M221 S95
M900 K30 ; Filament gcode
G21 ; set units to millimeters
G90 ; use absolute coordinates
M83 ; use relative distances for extrusion
;BEFORE_LAYER_CHANGE
G92 E0.0
;0.2


G1 E-0.80000 F2100.00000
G1 Z0.600 F10800.000
;AFTER_LAYER_CHANGE
;0.2
G1 X103.863 Y69.885
G1 Z0.200
G1 E0.80000 F2100.00000
M204 S1000
G1 F1200
G1 X104.454 Y69.548 E0.02134
G1 X105.121 Y69.409 E0.02134
G1 X144.959 Y69.406 E1.24910
G1 X145.792 Y69.573 E0.02664
G1 X146.499 Y70.044 E0.02664
G1 X147.732 Y71.417 E0.05784
G1 X147.976 Y71.938 E0.01805
G1 X148.075 Y72.506 E0.01805
G1 X148.076 Y138.602 E2.07241
G1 X148.003 Y139.155 E0.01749
G1 X147.793 Y139.672 E0.01749
G1 X147.509 Y140.065 E0.01521
G1 X146.288 Y141.331 E0.05515
G1 X145.704 Y141.651 E0.02089
G1 X145.047 Y141.782 E0.02100
G1 X105.215 Y141.783 E1.24892
G1 X104.666 Y141.710 E0.01737
G1 X104.153 Y141.500 E0.01737
G1 X103.637 Y141.096 E0.02055
G1 X102.583 Y139.832 E0.05159
G1 X102.306 Y139.270 E0.01964
G1 X102.200 Y138.649 E0.01976
G1 X102.199 Y72.588 E2.07132
G1 X102.272 Y72.035 E0.01749
G1 X102.482 Y71.518 E0.01749
G1 X103.824 Y69.931 E0.06516
; PURGING FINISHED
G1 F8640
G1 X104.454 Y69.548 E-0.17025
G1 X105.121 Y69.409 E-0.15717
G1 X106.994 Y69.409 E-0.43258
G1 E-0.04000 F2100.00000
G1 Z0.800 F10800.000
G1 X120.051 Y92.508
G1 Z0.200
G1 E0.80000 F2100.00000
G1 F1200
G1 X131.225 Y92.508 E0.35036
G1 X131.225 Y108.682 E0.50713
G1 X120.051 Y108.682 E0.35036
G1 X120.051 Y92.568 E0.50525
G1 X120.428 Y92.885 F10800.000
G1 F1200
G1 X130.848 Y92.885 E0.32671
G1 X130.848 Y108.305 E0.48348
G1 X120.428 Y108.305 E0.32671
G1 X120.428 Y92.945 E0.48160
G1 X120.349 Y92.493 F10800.000
G1 F8640
G1 X123.719 Y92.926 E-0.76000
G1 E-0.04000 F2100.00000
G1 Z0.800 F10800.000
G1 X114.342 Y72.932
G1 Z0.200
G1 E0.80000 F2100.00000
G1 F1200
G1 X135.842 Y72.932 E0.67412
G1 X135.842 Y72.182 E0.02352
G1 X144.368 Y72.182 E0.26732
G1 X144.368 Y73.182 E0.03135
G1 X145.301 Y73.182 E0.02924
G1 X145.301 Y138.008 E2.03257
G1 X144.368 Y138.008 E0.02924
G1 X144.368 Y139.008 E0.03135
G1 X135.842 Y139.008 E0.26732
G1 X135.842 Y138.258 E0.02352
G1 X114.342 Y138.258 E0.67412
G1 X114.342 Y139.008 E0.02352
G1 X105.816 Y139.008 E0.26732
G1 X105.816 Y138.008 E0.03135
G1 X104.975 Y138.008 E0.02638
G1 X104.975 Y73.182 E2.03257
G1 X105.816 Y73.182 E0.02638
G1 X105.816 Y72.182 E0.03135
G1 X114.342 Y72.182 E0.26732
G1 X114.342 Y72.872 E0.02163
G1 X114.719 Y72.555 F10800.000
G1 F1200
G1 X135.465 Y72.555 E0.65047
G1 X135.465 Y71.805 E0.02352
G1 X144.745 Y71.805 E0.29097
G1 X144.745 Y72.805 E0.03135
G1 X145.678 Y72.805 E0.02924
G1 X145.678 Y138.385 E2.05621
G1 X144.745 Y138.385 E0.02924
G1 X144.745 Y139.385 E0.03135
G1 X135.465 Y139.385 E0.29097
G1 X135.465 Y138.635 E0.02352
G1 X114.719 Y138.635 E0.65047
G1 X114.719 Y139.385 E0.02352
G1 X105.439 Y139.385 E0.29097
G1 X105.439 Y138.385 E0.03135
G1 X104.598 Y138.385 E0.02638
G1 X104.598 Y72.805 E2.05621
G1 X105.439 Y72.805 E0.02638
G1 X105.439 Y71.805 E0.03135
G1 X114.719 Y71.805 E0.29097
G1 X114.719 Y72.495 E0.02163
G1 X114.910 Y72.907 F10800.000
G1 F8640
G1 X118.011 Y72.504 E-0.76000
G1 E-0.04000 F2100.00000
G1 Z0.800 F10800.000
G1 X144.255 Y73.061
G1 Z0.200
G1 E0.80000 F2100.00000
G1 F1200
G1 X143.659 Y72.465 E0.02656
G1 X143.123 Y72.465 E0.01687
G1 X145.018 Y74.360 E0.08441
G1 X145.018 Y74.895 E0.01687
G1 X142.587 Y72.465 E0.10828
G1 X142.052 Y72.465 E0.01687
G1 X145.018 Y75.431 E0.13214
G1 X145.018 Y75.967 E0.01687
G1 X141.516 Y72.465 E0.15600
G1 X140.980 Y72.465 E0.01687
G1 X145.018 Y76.503 E0.17987
G1 X145.018 Y77.038 E0.01687
G1 X140.444 Y72.465 E0.20373
G1 X139.909 Y72.465 E0.01687
G1 X145.018 Y77.574 E0.22759
G1 X145.018 Y78.110 E0.01687
G1 X139.373 Y72.465 E0.25146
G1 X138.837 Y72.465 E0.01687
G1 X145.018 Y78.645 E0.27532
G1 X145.018 Y79.181 E0.01687
G1 X138.302 Y72.465 E0.29918
G1 X137.766 Y72.465 E0.01687
G1 X145.018 Y79.717 E0.32305
G1 X145.018 Y80.253 E0.01687
G1 X137.230 Y72.465 E0.34691
G1 X136.694 Y72.465 E0.01687
G1 X145.018 Y80.788 E0.37077
G1 X145.018 Y81.324 E0.01687
G1 X136.159 Y72.465 E0.39464
G1 X136.125 Y72.465 E0.00106
G1 X136.125 Y72.967 E0.01581
G1 X145.018 Y81.860 E0.39614
G1 X145.018 Y82.396 E0.01687
G1 X135.837 Y73.215 E0.40896
G1 X135.302 Y73.215 E0.01687
G1 X145.018 Y82.931 E0.43282
G1 X145.018 Y83.467 E0.01687
G1 X134.766 Y73.215 E0.45668
G1 X134.230 Y73.215 E0.01687
G1 X145.018 Y84.003 E0.48055
G1 X145.018 Y84.538 E0.01687
G1 X133.694 Y73.215 E0.50441
G1 X133.159 Y73.215 E0.01687
G1 X145.018 Y85.074 E0.52827
G1 X145.018 Y85.610 E0.01687
G1 X132.623 Y73.215 E0.55214
G1 X132.087 Y73.215 E0.01687
G1 X145.018 Y86.146 E0.57600
G1 X145.018 Y86.681 E0.01687
G1 X131.551 Y73.215 E0.59986
G1 X131.016 Y73.215 E0.01687
G1 X145.018 Y87.217 E0.62373
G1 X145.018 Y87.753 E0.01687
G1 X130.480 Y73.215 E0.64759
M73 Q4 S24
M73 P4 R24
G1 X129.944 Y73.215 E0.01687
G1 X145.018 Y88.288 E0.67145
G1 X145.018 Y88.824 E0.01687
G1 X129.409 Y73.215 E0.69532
G1 X128.873 Y73.215 E0.01687
G1 X145.018 Y89.360 E0.71918
G1 X145.018 Y89.896 E0.01687
G1 X128.337 Y73.215 E0.74305
G1 X127.801 Y73.215 E0.01687
G1 X145.018 Y90.431 E0.76691
G1 X145.018 Y90.967 E0.01687
G1 X127.266 Y73.215 E0.79077
G1 X126.730 Y73.215 E0.01687
G1 X145.018 Y91.503 E0.81464
G1 X145.018 Y92.038 E0.01687
G1 X126.194 Y73.215 E0.83850
G1 X125.659 Y73.215 E0.01687
G1 X145.018 Y92.574 E0.86236
G1 X145.018 Y93.110 E0.01687
G1 X125.123 Y73.215 E0.88623
G1 X124.587 Y73.215 E0.01687
G1 X145.018 Y93.646 E0.91009
G1 X145.018 Y94.181 E0.01687
G1 X124.051 Y73.215 E0.93395
G1 X123.516 Y73.215 E0.01687
G1 X145.018 Y94.717 E0.95782
G1 X145.018 Y95.253 E0.01687
G1 X122.980 Y73.215 E0.98168
G1 X122.444 Y73.215 E0.01687
G1 X145.018 Y95.788 E1.00554
G1 X145.018 Y96.324 E0.01687
G1 X121.909 Y73.215 E1.02941
G1 X121.373 Y73.215 E0.01687
G1 X145.018 Y96.860 E1.05327
G1 X145.018 Y97.396 E0.01687
G1 X120.837 Y73.215 E1.07713
G1 X120.301 Y73.215 E0.01687
G1 X145.018 Y97.931 E1.10100
G1 X145.018 Y98.467 E0.01687
G1 X119.766 Y73.215 E1.12486
G1 X119.230 Y73.215 E0.01687
G1 X145.018 Y99.003 E1.14873
G1 X145.018 Y99.538 E0.01687
G1 X118.694 Y73.215 E1.17259
G1 X118.159 Y73.215 E0.01687
G1 X145.018 Y100.074 E1.19645
G1 X145.018 Y100.610 E0.01687
G1 X117.623 Y73.215 E1.22032
G1 X117.087 Y73.215 E0.01687
G1 X145.018 Y101.146 E1.24418
G1 X145.018 Y101.681 E0.01687
G1 X116.551 Y73.215 E1.26804
G1 X116.016 Y73.215 E0.01687
G1 X145.018 Y102.217 E1.29191
G1 X145.018 Y102.753 E0.01687
G1 X115.480 Y73.215 E1.31577
G1 X114.944 Y73.215 E0.01687
G1 X145.018 Y103.288 E1.33963
G1 X145.018 Y103.824 E0.01687
G1 X114.409 Y73.215 E1.36350
G1 X114.059 Y73.215 E0.01100
G1 X114.059 Y72.866 E0.01100
G1 X113.659 Y72.465 E0.01786
G1 X113.123 Y72.465 E0.01687
G1 X145.018 Y104.360 E1.42077
G1 X145.018 Y104.896 E0.01687
G1 X112.587 Y72.465 E1.44463
G1 X112.051 Y72.465 E0.01687
G1 X145.018 Y105.431 E1.46850
G1 X145.018 Y105.967 E0.01687
G1 X111.516 Y72.465 E1.49236
G1 X110.980 Y72.465 E0.01687
G1 X130.740 Y92.225 E0.88022
M73 Q8 S23
M73 P8 R23
G1 X130.205 Y92.225 E0.01687
G1 X110.444 Y72.465 E0.88022
G1 X109.909 Y72.465 E0.01687
G1 X129.669 Y92.225 E0.88022
G1 X129.133 Y92.225 E0.01687
G1 X109.373 Y72.465 E0.88022
G1 X108.837 Y72.465 E0.01687
G1 X128.597 Y92.225 E0.88022
G1 X128.062 Y92.225 E0.01687
G1 X108.301 Y72.465 E0.88022
G1 X107.766 Y72.465 E0.01687
G1 X127.526 Y92.225 E0.88022
G1 X126.990 Y92.225 E0.01687
G1 X107.230 Y72.465 E0.88022
G1 X106.694 Y72.465 E0.01687
G1 X126.455 Y92.225 E0.88022
G1 X125.919 Y92.225 E0.01687
G1 X106.159 Y72.465 E0.88022
G1 X106.099 Y72.465 E0.00187
G1 X106.099 Y72.941 E0.01500
G1 X125.383 Y92.225 E0.85900
G1 X124.847 Y92.225 E0.01687
G1 X106.087 Y73.465 E0.83568
G1 X105.551 Y73.465 E0.01687
G1 X124.312 Y92.225 E0.83568
G1 X123.776 Y92.225 E0.01687
G1 X105.258 Y73.707 E0.82490
G1 X105.258 Y74.243 E0.01687
G1 X123.240 Y92.225 E0.80103
G1 X122.704 Y92.225 E0.01687
G1 X105.258 Y74.778 E0.77717
G1 X105.258 Y75.314 E0.01687
G1 X122.169 Y92.225 E0.75330
G1 X121.633 Y92.225 E0.01687
G1 X105.258 Y75.850 E0.72944
G1 X105.258 Y76.385 E0.01687
G1 X121.097 Y92.225 E0.70558
G1 X120.562 Y92.225 E0.01687
G1 X105.258 Y76.921 E0.68171
G1 X105.258 Y77.457 E0.01687
G1 X120.026 Y92.225 E0.65785
G1 X119.768 Y92.225 E0.00812
G1 X119.768 Y92.503 E0.00875
G1 X105.258 Y77.993 E0.64636
G1 X105.258 Y78.528 E0.01687
G1 X119.768 Y93.039 E0.64636
G1 X119.768 Y93.574 E0.01687
G1 X105.258 Y79.064 E0.64636
G1 X105.258 Y79.600 E0.01687
G1 X119.768 Y94.110 E0.64636
G1 X119.768 Y94.646 E0.01687
G1 X105.258 Y80.135 E0.64636
G1 X105.258 Y80.671 E0.01687
G1 X119.768 Y95.181 E0.64636
G1 X119.768 Y95.717 E0.01687
G1 X105.258 Y81.207 E0.64636
G1 X105.258 Y81.743 E0.01687
G1 X119.768 Y96.253 E0.64636
G1 X119.768 Y96.789 E0.01687
G1 X105.258 Y82.278 E0.64636
G1 X105.258 Y82.814 E0.01687
G1 X119.768 Y97.324 E0.64636
G1 X119.768 Y97.860 E0.01687
G1 X105.258 Y83.350 E0.64636
G1 X105.258 Y83.885 E0.01687
G1 X119.768 Y98.396 E0.64636
G1 X119.768 Y98.931 E0.01687
G1 X105.258 Y84.421 E0.64636
G1 X105.258 Y84.957 E0.01687
G1 X119.768 Y99.467 E0.64636
G1 X119.768 Y100.003 E0.01687
G1 X105.258 Y85.493 E0.64636
G1 X105.258 Y86.028 E0.01687
G1 X119.768 Y100.539 E0.64636
G1 X119.768 Y101.074 E0.01687
G1 X105.258 Y86.564 E0.64636
G1 X105.258 Y87.100 E0.01687
G1 X119.768 Y101.610 E0.64636
G1 X119.768 Y102.146 E0.01687
G1 X105.258 Y87.635 E0.64636
G1 X105.258 Y88.171 E0.01687
G1 X119.768 Y102.681 E0.64636
G1 X119.768 Y103.217 E0.01687
G1 X105.258 Y88.707 E0.64636
G1 X105.258 Y89.243 E0.01687
G1 X119.768 Y103.753 E0.64636
G1 X119.768 Y104.289 E0.01687
G1 X105.258 Y89.778 E0.64636
G1 X105.258 Y90.314 E0.01687
G1 X119.768 Y104.824 E0.64636
G1 X119.768 Y105.360 E0.01687
G1 X105.258 Y90.850 E0.64636
G1 X105.258 Y91.385 E0.01687
G1 X119.768 Y105.896 E0.64636
G1 X119.768 Y106.431 E0.01687
G1 X105.258 Y91.921 E0.64636
G1 X105.258 Y92.457 E0.01687
G1 X119.768 Y106.967 E0.64636
G1 X119.768 Y107.503 E0.01687
G1 X105.258 Y92.993 E0.64636
G1 X105.258 Y93.528 E0.01687
G1 X119.768 Y108.039 E0.64636
G1 X119.768 Y108.574 E0.01687
G1 X105.258 Y94.064 E0.64636
G1 X105.258 Y94.600 E0.01687
G1 X145.018 Y134.360 E1.77112
M73 Q12 S22
M73 P12 R21
G1 X145.018 Y133.824 E0.01687
G1 X120.158 Y108.965 E1.10737
G1 X120.694 Y108.965 E0.01687
G1 X145.018 Y133.289 E1.08351
G1 X145.018 Y132.753 E0.01687
G1 X121.230 Y108.965 E1.05964
G1 X121.766 Y108.965 E0.01687
G1 X145.018 Y132.217 E1.03578
G1 X145.018 Y131.681 E0.01687
G1 X122.301 Y108.965 E1.01192
G1 X122.837 Y108.965 E0.01687
G1 X145.018 Y131.146 E0.98805
G1 X145.018 Y130.610 E0.01687
G1 X123.373 Y108.965 E0.96419
G1 X123.908 Y108.965 E0.01687
G1 X145.018 Y130.074 E0.94032
G1 X145.018 Y129.539 E0.01687
G1 X124.444 Y108.965 E0.91646
G1 X124.980 Y108.965 E0.01687
G1 X145.018 Y129.003 E0.89260
G1 X145.018 Y128.467 E0.01687
G1 X125.516 Y108.965 E0.86873
G1 X126.051 Y108.965 E0.01687
G1 X145.018 Y127.931 E0.84487
G1 X145.018 Y127.396 E0.01687
G1 X126.587 Y108.965 E0.82101
G1 X127.123 Y108.965 E0.01687
G1 X145.018 Y126.860 E0.79714
G1 X145.018 Y126.324 E0.01687
G1 X127.658 Y108.965 E0.77328
G1 X128.194 Y108.965 E0.01687
G1 X145.018 Y125.789 E0.74942
G1 X145.018 Y125.253 E0.01687
G1 X128.730 Y108.965 E0.72555
G1 X129.266 Y108.965 E0.01687
G1 X145.018 Y124.717 E0.70169
G1 X145.018 Y124.181 E0.01687
G1 X129.801 Y108.965 E0.67783
G1 X130.337 Y108.965 E0.01687
G1 X145.018 Y123.646 E0.65396
G1 X145.018 Y123.110 E0.01687
G1 X130.873 Y108.965 E0.63010
G1 X131.408 Y108.965 E0.01687
G1 X145.018 Y122.574 E0.60624
G1 X145.018 Y122.039 E0.01687
G1 X131.508 Y108.528 E0.60182
G1 X131.508 Y107.993 E0.01687
G1 X145.018 Y121.503 E0.60182
G1 X145.018 Y120.967 E0.01687
G1 X131.508 Y107.457 E0.60182
G1 X131.508 Y106.921 E0.01687
G1 X145.018 Y120.431 E0.60182
G1 X145.018 Y119.896 E0.01687
G1 X131.508 Y106.385 E0.60182
G1 X131.508 Y105.850 E0.01687
G1 X145.018 Y119.360 E0.60182
G1 X145.018 Y118.824 E0.01687
G1 X131.508 Y105.314 E0.60182
G1 X131.508 Y104.778 E0.01687
G1 X145.018 Y118.289 E0.60182
G1 X145.018 Y117.753 E0.01687
G1 X131.508 Y104.243 E0.60182
G1 X131.508 Y103.707 E0.01687
G1 X145.018 Y117.217 E0.60182
G1 X145.018 Y116.681 E0.01687
G1 X131.508 Y103.171 E0.60182
G1 X131.508 Y102.635 E0.01687
G1 X145.018 Y116.146 E0.60182
G1 X145.018 Y115.610 E0.01687
G1 X131.508 Y102.100 E0.60182
G1 X131.508 Y101.564 E0.01687
G1 X145.018 Y115.074 E0.60182
G1 X145.018 Y114.539 E0.01687
G1 X131.508 Y101.028 E0.60182
G1 X131.508 Y100.493 E0.01687
G1 X145.018 Y114.003 E0.60182
G1 X145.018 Y113.467 E0.01687
G1 X131.508 Y99.957 E0.60182
G1 X131.508 Y99.421 E0.01687
G1 X145.018 Y112.931 E0.60182
G1 X145.018 Y112.396 E0.01687
G1 X131.508 Y98.885 E0.60182
G1 X131.508 Y98.350 E0.01687
G1 X145.018 Y111.860 E0.60182
G1 X145.018 Y111.324 E0.01687
G1 X131.508 Y97.814 E0.60182
G1 X131.508 Y97.278 E0.01687
G1 X145.018 Y110.789 E0.60182
G1 X145.018 Y110.253 E0.01687
G1 X131.508 Y96.743 E0.60182
G1 X131.508 Y96.207 E0.01687
G1 X145.018 Y109.717 E0.60182
G1 X145.018 Y109.181 E0.01687
G1 X131.508 Y95.671 E0.60182
G1 X131.508 Y95.135 E0.01687
G1 X145.018 Y108.646 E0.60182
G1 X145.018 Y108.110 E0.01687
G1 X131.508 Y94.600 E0.60182
G1 X131.508 Y94.064 E0.01687
G1 X145.018 Y107.574 E0.60182
G1 X145.018 Y107.038 E0.01687
G1 X131.508 Y93.528 E0.60182
G1 X131.508 Y92.993 E0.01687
G1 X145.188 Y106.672 E0.60937
M73 Q16 S21
M73 P16 R20
G1 F8640
G1 X142.860 Y104.345 E-0.76000
G1 E-0.04000 F2100.00000
G1 Z0.800 F10800.000
G1 X145.188 Y135.065
G1 Z0.200
G1 E0.80000 F2100.00000
G1 F1200
G1 X105.258 Y95.135 E1.77868
G1 X105.258 Y95.671 E0.01687
G1 X145.018 Y135.431 E1.77112
G1 X145.018 Y135.967 E0.01687
G1 X105.258 Y96.207 E1.77112
G1 X105.258 Y96.743 E0.01687
G1 X145.018 Y136.503 E1.77112
G1 X145.018 Y137.039 E0.01687
G1 X105.258 Y97.278 E1.77112
G1 X105.258 Y97.814 E0.01687
G1 X145.018 Y137.574 E1.77112
G1 X145.018 Y137.725 E0.00475
G1 X144.633 Y137.725 E0.01213
G1 X105.258 Y98.350 E1.75397
G1 X105.258 Y98.886 E0.01687
G1 X144.097 Y137.725 E1.73011
G1 X144.085 Y138.249 E0.01650
G1 X105.258 Y99.421 E1.72958
G1 X105.258 Y99.957 E0.01687
G1 X144.026 Y138.725 E1.72693
G1 X143.490 Y138.725 E0.01687
G1 X105.258 Y100.493 E1.70306
G1 X105.258 Y101.028 E0.01687
G1 X142.954 Y138.725 E1.67920
G1 X142.419 Y138.725 E0.01687
G1 X105.258 Y101.564 E1.65534
G1 X105.258 Y102.100 E0.01687
G1 X141.883 Y138.725 E1.63147
G1 X141.347 Y138.725 E0.01687
G1 X105.258 Y102.636 E1.60761
G1 X105.258 Y103.171 E0.01687
G1 X140.811 Y138.725 E1.58375
G1 X140.276 Y138.725 E0.01687
G1 X105.258 Y103.707 E1.55988
G1 X105.258 Y104.243 E0.01687
G1 X139.740 Y138.725 E1.53602
G1 X139.204 Y138.725 E0.01687
G1 X105.258 Y104.778 E1.51215
G1 X105.258 Y105.314 E0.01687
G1 X138.669 Y138.725 E1.48829
G1 X138.133 Y138.725 E0.01687
G1 X105.258 Y105.850 E1.46443
G1 X105.258 Y106.386 E0.01687
G1 X137.597 Y138.725 E1.44056
G1 X137.061 Y138.725 E0.01687
G1 X105.258 Y106.921 E1.41670
M73 Q20 S20
M73 P20 R19
G1 X105.258 Y107.457 E0.01687
G1 X135.776 Y137.975 E1.35943
G1 X135.240 Y137.975 E0.01687
G1 X105.258 Y107.993 E1.33556
G1 X105.258 Y108.528 E0.01687
G1 X134.704 Y137.975 E1.31170
