; generated by Slic3r Prusa Edition 1.41.3+win64 on 2019-03-14 at 10:54:43

; 

; external perimeters extrusion width = 0.45mm
; perimeters extrusion width = 0.45mm
; infill extrusion width = 0.45mm
; solid infill extrusion width = 0.45mm
; top infill extrusion width = 0.40mm
; first layer extrusion width = 0.42mm

M73 P0 R115
M73 Q0 S116
M201 X1000 Y1000 Z1000 E5000 ; sets maximum accelerations, mm/sec^2
M203 X200 Y200 Z12 E120 ; sets maximum feedrates, mm/sec
M204 P1250 R1250 T1250 ; sets acceleration (P, T) and retract acceleration (R), mm/sec^2
M205 X8.00 Y8.00 Z0.40 E1.50 ; sets the jerk limits, mm/sec
M205 S0 T0 ; sets the minimum extruding and travel feed rate, mm/sec
M107
M115 U3.6.0 ; tell printer latest fw version
M83  ; extruder relative mode
M104 S215 ; set extruder temp
M140 S60 ; set bed temp
M190 S60 ; wait for bed temp
M109 S215 ; wait for extruder temp
G28 W ; home all without mesh bed level
G80 ; mesh bed leveling
G1 Y-3.0 F1000.0 ; go outside print area
G92 E0.0
G1 X60.0 E9.0  F1000.0 ; intro line
M73 Q0 S116
M73 P0 R115
G1 X100.0 E12.5  F1000.0 ; intro line
G92 E0.0
M221 S95
M900 K30 ; Filament gcode
G21 ; set units to millimeters
G90 ; use absolute coordinates
M83 ; use relative distances for extrusion
;BEFORE_LAYER_CHANGE
G92 E0.0
;0.2


G1 E-0.80000 F2100.00000
G1 Z0.600 F10800.000
;AFTER_LAYER_CHANGE
;0.2
G1 X103.626 Y73.923
G1 Z0.200
G1 E0.80000 F2100.00000
M204 S1000
G1 F1200
G1 X103.966 Y73.504 E0.01692
G1 X104.398 Y73.181 E0.01692
G1 X104.896 Y72.973 E0.01692
G1 X105.430 Y72.894 E0.01692
G1 X145.487 Y72.893 E1.25596
G1 X146.306 Y73.054 E0.02620
G1 X147.009 Y73.513 E0.02631
G1 X147.487 Y74.202 E0.02631
G1 X147.671 Y75.021 E0.02631
G1 X147.671 Y137.093 E1.94621
G1 X147.586 Y137.688 E0.01885
G1 X147.340 Y138.240 E0.01896
G1 X146.997 Y138.662 E0.01703
G1 X146.558 Y138.988 E0.01714
G1 X146.056 Y139.194 E0.01703
G1 X145.518 Y139.270 E0.01703
G1 X105.465 Y139.270 E1.25585
G1 X104.873 Y139.184 E0.01873
G1 X104.324 Y138.938 E0.01885
G1 X103.900 Y138.593 E0.01714
G1 X103.575 Y138.154 E0.01714
G1 X103.369 Y137.647 E0.01714
G1 X103.294 Y137.106 E0.01714
G1 X103.294 Y75.071 E1.94507
G1 X103.380 Y74.476 E0.01885
G1 X103.602 Y73.978 E0.01708
; PURGING FINISHED
G1 F8640
G1 X103.966 Y73.504 E-0.13801
G1 X104.398 Y73.181 E-0.12458
G1 X104.896 Y72.973 E-0.12458
G1 X105.430 Y72.894 E-0.12458
G1 X106.505 Y72.894 E-0.24825
G1 E-0.04000 F2100.00000
G1 Z0.800 F10800.000
G1 X106.070 Y75.669
G1 Z0.200
G1 E0.80000 F2100.00000
G1 F1200
G1 X144.896 Y75.669 E1.21736
G1 X144.896 Y136.495 E1.90715
G1 X106.070 Y136.495 E1.21736
G1 X106.070 Y75.729 E1.90527
G1 X105.693 Y75.292 F10800.000
G1 F1200
G1 X145.273 Y75.292 E1.24100
G1 X145.273 Y136.872 E1.93080
G1 X105.693 Y136.872 E1.24100
G1 X105.693 Y75.352 E1.92892
G1 X106.071 Y75.422 F10800.000
G1 F8640
G1 X108.984 Y75.347 E-0.76000
G1 E-0.04000 F2100.00000
G1 Z0.800 F10800.000
G1 X144.783 Y76.545
G1 Z0.200
G1 E0.80000 F2100.00000
G1 F1200
G1 X144.189 Y75.951 E0.02633
G1 X143.656 Y75.951 E0.01675
G1 X144.613 Y76.909 E0.04249
G1 X144.613 Y77.443 E0.01675
G1 X143.122 Y75.951 E0.06617
G1 X142.588 Y75.951 E0.01675
G1 X144.613 Y77.976 E0.08986
G1 X144.613 Y78.510 E0.01675
G1 X142.054 Y75.951 E0.11355
G1 X141.521 Y75.951 E0.01675
G1 X144.613 Y79.044 E0.13724
G1 X144.613 Y79.577 E0.01675
G1 X140.987 Y75.951 E0.16092
G1 X140.453 Y75.951 E0.01675
G1 X144.613 Y80.111 E0.18461
G1 X144.613 Y80.645 E0.01675
G1 X139.920 Y75.951 E0.20830
G1 X139.386 Y75.951 E0.01675
G1 X144.613 Y81.179 E0.23198
G1 X144.613 Y81.712 E0.01675
G1 X138.852 Y75.951 E0.25567
G1 X138.318 Y75.951 E0.01675
G1 X144.613 Y82.246 E0.27936
G1 X144.613 Y82.780 E0.01675
G1 X137.785 Y75.951 E0.30305
G1 X137.251 Y75.951 E0.01675
G1 X144.613 Y83.314 E0.32673
G1 X144.613 Y83.847 E0.01675
G1 X136.717 Y75.951 E0.35042
G1 X136.183 Y75.951 E0.01675
G1 X144.613 Y84.381 E0.37411
G1 X144.613 Y84.915 E0.01675
G1 X135.650 Y75.951 E0.39779
G1 X135.116 Y75.951 E0.01675
G1 X144.613 Y85.449 E0.42148
G1 X144.613 Y85.982 E0.01675
G1 X134.582 Y75.951 E0.44517
G1 X134.048 Y75.951 E0.01675
G1 X144.613 Y86.516 E0.46886
G1 X144.613 Y87.050 E0.01675
G1 X133.515 Y75.951 E0.49254
G1 X132.981 Y75.951 E0.01675
G1 X144.613 Y87.583 E0.51623
G1 X144.613 Y88.117 E0.01675
G1 X132.447 Y75.951 E0.53992
G1 X131.914 Y75.951 E0.01675
G1 X144.613 Y88.651 E0.56361
G1 X144.613 Y89.185 E0.01675
G1 X131.380 Y75.951 E0.58729
G1 X130.846 Y75.951 E0.01675
G1 X144.613 Y89.718 E0.61098
G1 X144.613 Y90.252 E0.01675
G1 X130.312 Y75.951 E0.63467
G1 X129.779 Y75.951 E0.01675
G1 X144.613 Y90.786 E0.65835
G1 X144.613 Y91.320 E0.01675
G1 X129.245 Y75.951 E0.68204
G1 X128.711 Y75.951 E0.01675
G1 X144.613 Y91.853 E0.70573
G1 X144.613 Y92.387 E0.01675
G1 X128.177 Y75.951 E0.72942
G1 X127.644 Y75.951 E0.01675
G1 X144.613 Y92.921 E0.75310
G1 X144.613 Y93.455 E0.01675
G1 X127.110 Y75.951 E0.77679
G1 X126.576 Y75.951 E0.01675
G1 X144.613 Y93.988 E0.80048
G1 X144.613 Y94.522 E0.01675
G1 X126.042 Y75.951 E0.82416
M73 Q0 S115
M73 P0 R114
G1 X125.509 Y75.951 E0.01675
G1 X144.613 Y95.056 E0.84785
G1 X144.613 Y95.589 E0.01675
G1 X124.975 Y75.951 E0.87154
G1 X124.441 Y75.951 E0.01675
G1 X144.613 Y96.123 E0.89523
G1 X144.613 Y96.657 E0.01675
G1 X123.908 Y75.951 E0.91891
G1 X123.374 Y75.951 E0.01675
G1 X144.613 Y97.191 E0.94260
G1 X144.613 Y97.724 E0.01675
G1 X122.840 Y75.951 E0.96629
G1 X122.306 Y75.951 E0.01675
G1 X144.613 Y98.258 E0.98997
G1 X144.613 Y98.792 E0.01675
G1 X121.773 Y75.951 E1.01366
G1 X121.239 Y75.951 E0.01675
G1 X144.613 Y99.326 E1.03735
G1 X144.613 Y99.859 E0.01675
G1 X120.705 Y75.951 E1.06104
G1 X120.171 Y75.951 E0.01675
G1 X144.613 Y100.393 E1.08472
G1 X144.613 Y100.927 E0.01675
G1 X119.638 Y75.951 E1.10841
G1 X119.104 Y75.951 E0.01675
G1 X144.613 Y101.461 E1.13210
G1 X144.613 Y101.994 E0.01675
G1 X118.570 Y75.951 E1.15579
G1 X118.036 Y75.951 E0.01675
G1 X144.613 Y102.528 E1.17947
G1 X144.613 Y103.062 E0.01675
G1 X117.503 Y75.951 E1.20316
G1 X116.969 Y75.951 E0.01675
G1 X144.613 Y103.596 E1.22685
G1 X144.613 Y104.129 E0.01675
G1 X116.435 Y75.951 E1.25053
G1 X115.902 Y75.951 E0.01675
G1 X144.613 Y104.663 E1.27422
G1 X144.613 Y105.197 E0.01675
G1 X115.368 Y75.951 E1.29791
G1 X114.834 Y75.951 E0.01675
G1 X144.613 Y105.730 E1.32160
G1 X144.613 Y106.264 E0.01675
G1 X114.300 Y75.951 E1.34528
G1 X113.767 Y75.951 E0.01675
G1 X144.613 Y106.798 E1.36897
G1 X144.613 Y107.332 E0.01675
G1 X113.233 Y75.951 E1.39266
G1 X112.699 Y75.951 E0.01675
G1 X144.613 Y107.865 E1.41634
G1 X144.613 Y108.399 E0.01675
G1 X112.165 Y75.951 E1.44003
G1 X111.632 Y75.951 E0.01675
G1 X144.613 Y108.933 E1.46372
G1 X144.613 Y109.467 E0.01675
G1 X111.098 Y75.951 E1.48741
G1 X110.564 Y75.951 E0.01675
G1 X144.613 Y110.000 E1.51109
G1 X144.613 Y110.534 E0.01675
G1 X110.030 Y75.951 E1.53478
G1 X109.497 Y75.951 E0.01675
G1 X144.613 Y111.068 E1.55847
M73 Q1 S114
M73 P1 R113
G1 X144.613 Y111.602 E0.01675
G1 X108.963 Y75.951 E1.58216
G1 X108.429 Y75.951 E0.01675
G1 X144.613 Y112.135 E1.60584
G1 X144.613 Y112.669 E0.01675
G1 X107.895 Y75.951 E1.62953
G1 X107.362 Y75.951 E0.01675
G1 X144.613 Y113.203 E1.65322
G1 X144.613 Y113.736 E0.01675
G1 X106.828 Y75.951 E1.67690
G1 X106.353 Y75.951 E0.01492
G1 X106.353 Y76.010 E0.00183
G1 X144.613 Y114.270 E1.69800
G1 X144.613 Y114.804 E0.01675
G1 X106.353 Y76.544 E1.69800
G1 X106.353 Y77.077 E0.01675
G1 X144.613 Y115.338 E1.69800
G1 X144.613 Y115.871 E0.01675
G1 X106.353 Y77.611 E1.69800
G1 X106.353 Y78.145 E0.01675
G1 X144.613 Y116.405 E1.69800
G1 X144.613 Y116.939 E0.01675
G1 X106.353 Y78.679 E1.69800
G1 X106.353 Y79.212 E0.01675
G1 X144.613 Y117.473 E1.69800
G1 X144.613 Y118.006 E0.01675
G1 X106.353 Y79.746 E1.69800
G1 X106.353 Y80.280 E0.01675
G1 X144.613 Y118.540 E1.69800
G1 X144.613 Y119.074 E0.01675
G1 X106.353 Y80.814 E1.69800
G1 X106.353 Y81.347 E0.01675
G1 X144.613 Y119.608 E1.69800
G1 X144.613 Y120.141 E0.01675
G1 X106.353 Y81.881 E1.69800
G1 X106.353 Y82.415 E0.01675
G1 X144.613 Y120.675 E1.69800
G1 X144.613 Y121.209 E0.01675
G1 X106.353 Y82.948 E1.69800
G1 X106.353 Y83.482 E0.01675
G1 X144.613 Y121.742 E1.69800
G1 X144.613 Y122.276 E0.01675
G1 X106.353 Y84.016 E1.69800
G1 X106.353 Y84.550 E0.01675
G1 X144.613 Y122.810 E1.69800
G1 X144.613 Y123.344 E0.01675
G1 X106.353 Y85.083 E1.69800
M73 Q2 S113
M73 P2 R112
G1 X106.353 Y85.617 E0.01675
G1 X144.613 Y123.877 E1.69800
G1 X144.613 Y124.411 E0.01675
G1 X106.353 Y86.151 E1.69800
G1 X106.353 Y86.685 E0.01675
G1 X144.613 Y124.945 E1.69800
G1 X144.613 Y125.479 E0.01675
G1 X106.353 Y87.218 E1.69800
G1 X106.353 Y87.752 E0.01675
G1 X144.613 Y126.012 E1.69800
G1 X144.613 Y126.546 E0.01675
G1 X106.353 Y88.286 E1.69800
G1 X106.353 Y88.820 E0.01675
G1 X144.613 Y127.080 E1.69800
G1 X144.613 Y127.614 E0.01675
G1 X106.353 Y89.353 E1.69800
G1 X106.353 Y89.887 E0.01675
G1 X144.613 Y128.147 E1.69800
G1 X144.613 Y128.681 E0.01675
G1 X106.353 Y90.421 E1.69800
G1 X106.353 Y90.954 E0.01675
G1 X144.613 Y129.215 E1.69800
G1 X144.613 Y129.748 E0.01675
G1 X106.353 Y91.488 E1.69800
G1 X106.353 Y92.022 E0.01675
G1 X144.613 Y130.282 E1.69800
G1 X144.613 Y130.816 E0.01675
G1 X106.353 Y92.556 E1.69800
G1 X106.353 Y93.089 E0.01675
G1 X144.613 Y131.350 E1.69800
G1 X144.613 Y131.883 E0.01675
G1 X106.353 Y93.623 E1.69800
G1 X106.353 Y94.157 E0.01675
G1 X144.613 Y132.417 E1.69800
G1 X144.613 Y132.951 E0.01675
G1 X106.353 Y94.691 E1.69800
G1 X106.353 Y95.224 E0.01675
G1 X144.613 Y133.485 E1.69800
G1 X144.613 Y134.018 E0.01675
G1 X106.353 Y95.758 E1.69800
G1 X106.353 Y96.292 E0.01675
G1 X144.613 Y134.552 E1.69800
G1 X144.613 Y135.086 E0.01675
G1 X106.353 Y96.826 E1.69800
M73 Q3 S112
M73 P3 R111
G1 X106.353 Y97.359 E0.01675
G1 X144.613 Y135.620 E1.69800
G1 X144.613 Y136.153 E0.01675
G1 X106.353 Y97.893 E1.69800
G1 X106.353 Y98.427 E0.01675
G1 X144.138 Y136.212 E1.67690
G1 X143.604 Y136.212 E0.01675
G1 X106.353 Y98.960 E1.65322
G1 X106.353 Y99.494 E0.01675
G1 X143.070 Y136.212 E1.62953
G1 X142.537 Y136.212 E0.01675
G1 X106.353 Y100.028 E1.60584
G1 X106.353 Y100.562 E0.01675
G1 X142.003 Y136.212 E1.58216
G1 X141.469 Y136.212 E0.01675
G1 X106.353 Y101.095 E1.55847
G1 X106.353 Y101.629 E0.01675
G1 X140.935 Y136.212 E1.53478
G1 X140.402 Y136.212 E0.01675
G1 X106.353 Y102.163 E1.51109
G1 X106.353 Y102.697 E0.01675
G1 X139.868 Y136.212 E1.48741
G1 X139.334 Y136.212 E0.01675
G1 X106.353 Y103.230 E1.46372
G1 X106.353 Y103.764 E0.01675
G1 X138.800 Y136.212 E1.44003
G1 X138.267 Y136.212 E0.01675
G1 X106.353 Y104.298 E1.41634
G1 X106.353 Y104.832 E0.01675
G1 X137.733 Y136.212 E1.39266
G1 X137.199 Y136.212 E0.01675
G1 X106.353 Y105.365 E1.36897
G1 X106.353 Y105.899 E0.01675
G1 X136.665 Y136.212 E1.34528
G1 X136.132 Y136.212 E0.01675
G1 X106.353 Y106.433 E1.32160
G1 X106.353 Y106.967 E0.01675
G1 X135.598 Y136.212 E1.29791
G1 X135.064 Y136.212 E0.01675
G1 X106.353 Y107.500 E1.27422
G1 X106.353 Y108.034 E0.01675
G1 X134.531 Y136.212 E1.25053
G1 X133.997 Y136.212 E0.01675
G1 X106.353 Y108.568 E1.22685
G1 X106.353 Y109.101 E0.01675
G1 X133.463 Y136.212 E1.20316
G1 X132.929 Y136.212 E0.01675
G1 X106.353 Y109.635 E1.17947
G1 X106.353 Y110.169 E0.01675
G1 X132.396 Y136.212 E1.15579
G1 X131.862 Y136.212 E0.01675
G1 X106.353 Y110.703 E1.13210
M73 Q4 S111
M73 P4 R110
G1 X106.353 Y111.236 E0.01675
G1 X131.328 Y136.212 E1.10841
G1 X130.794 Y136.212 E0.01675
G1 X106.353 Y111.770 E1.08472
G1 X106.353 Y112.304 E0.01675
G1 X130.261 Y136.212 E1.06104
G1 X129.727 Y136.212 E0.01675
G1 X106.353 Y112.838 E1.03735
G1 X106.353 Y113.371 E0.01675
G1 X129.193 Y136.212 E1.01366
G1 X128.659 Y136.212 E0.01675
G1 X106.353 Y113.905 E0.98998
G1 X106.353 Y114.439 E0.01675
G1 X128.126 Y136.212 E0.96629
G1 X127.592 Y136.212 E0.01675
G1 X106.353 Y114.973 E0.94260
G1 X106.353 Y115.506 E0.01675
G1 X127.058 Y136.212 E0.91891
G1 X126.525 Y136.212 E0.01675
G1 X106.353 Y116.040 E0.89523
G1 X106.353 Y116.574 E0.01675
G1 X125.991 Y136.212 E0.87154
G1 X125.457 Y136.212 E0.01675
G1 X106.353 Y117.107 E0.84785
G1 X106.353 Y117.641 E0.01675
G1 X124.923 Y136.212 E0.82416
G1 X124.390 Y136.212 E0.01675
G1 X106.353 Y118.175 E0.80048
G1 X106.353 Y118.709 E0.01675
G1 X123.856 Y136.212 E0.77679
G1 X123.322 Y136.212 E0.01675
G1 X106.353 Y119.242 E0.75310
G1 X106.353 Y119.776 E0.01675
G1 X122.788 Y136.212 E0.72942
G1 X122.255 Y136.212 E0.01675
G1 X106.353 Y120.310 E0.70573
G1 X106.353 Y120.844 E0.01675
G1 X121.721 Y136.212 E0.68204
G1 X121.187 Y136.212 E0.01675
G1 X106.353 Y121.377 E0.65835
G1 X106.353 Y121.911 E0.01675
G1 X120.653 Y136.212 E0.63467
G1 X120.120 Y136.212 E0.01675
G1 X106.353 Y122.445 E0.61098
G1 X106.353 Y122.979 E0.01675
G1 X119.586 Y136.212 E0.58729
G1 X119.052 Y136.212 E0.01675
G1 X106.353 Y123.512 E0.56361
G1 X106.353 Y124.046 E0.01675
G1 X118.518 Y136.212 E0.53992
G1 X117.985 Y136.212 E0.01675
G1 X106.353 Y124.580 E0.51623
G1 X106.353 Y125.113 E0.01675
G1 X117.451 Y136.212 E0.49254
G1 X116.917 Y136.212 E0.01675
G1 X106.353 Y125.647 E0.46886
G1 X106.353 Y126.181 E0.01675
G1 X116.384 Y136.212 E0.44517
G1 X115.850 Y136.212 E0.01675
G1 X106.353 Y126.715 E0.42148
G1 X106.353 Y127.248 E0.01675
G1 X115.316 Y136.212 E0.39779
G1 X114.782 Y136.212 E0.01675
G1 X106.353 Y127.782 E0.37411
G1 X106.353 Y128.316 E0.01675
G1 X114.249 Y136.212 E0.35042
G1 X113.715 Y136.212 E0.01675
G1 X106.353 Y128.850 E0.32673
G1 X106.353 Y129.383 E0.01675
G1 X113.181 Y136.212 E0.30305
G1 X112.647 Y136.212 E0.01675
G1 X106.353 Y129.917 E0.27936
G1 X106.353 Y130.451 E0.01675
G1 X112.114 Y136.212 E0.25567
G1 X111.580 Y136.212 E0.01675
G1 X106.353 Y130.985 E0.23198
G1 X106.353 Y131.518 E0.01675
G1 X111.046 Y136.212 E0.20830
G1 X110.512 Y136.212 E0.01675
G1 X106.353 Y132.052 E0.18461
G1 X106.353 Y132.586 E0.01675
G1 X109.979 Y136.212 E0.16092
G1 X109.445 Y136.212 E0.01675
G1 X106.353 Y133.119 E0.13724
G1 X106.353 Y133.653 E0.01675
G1 X108.911 Y136.212 E0.11355
G1 X108.378 Y136.212 E0.01675
G1 X106.353 Y134.187 E0.08986
G1 X106.353 Y134.721 E0.01675
G1 X107.844 Y136.212 E0.06617
G1 X107.310 Y136.212 E0.01675
G1 X106.353 Y135.254 E0.04249
G1 X106.353 Y135.788 E0.01675
G1 X106.946 Y136.381 E0.02633
M106 S255
;BEFORE_LAYER_CHANGE
G92 E0.0
;0.35


G1 F8640
G1 X106.353 Y135.788 E-0.19373
G1 X106.353 Y135.254 E-0.12324
G1 X107.310 Y136.212 E-0.31261
G1 X107.844 Y136.212 E-0.12324
G1 X107.822 Y136.190 E-0.00717
G1 E-0.04000 F2100.00000
G1 Z0.800 F10800.000
;AFTER_LAYER_CHANGE
;0.35
G1 X104.873 Y139.184
G1 Z0.350
G1 E0.80000 F2100.00000
G1 F3000
G1 X104.324 Y138.938 E0.01454
G1 X103.900 Y138.593 E0.01322
G1 X103.575 Y138.154 E0.01322
G1 X103.369 Y137.647 E0.01322
G1 X103.294 Y137.106 E0.01322
G1 X103.294 Y75.071 E1.50031
G1 X103.380 Y74.476 E0.01454
G1 X103.626 Y73.923 E0.01463
G1 X103.966 Y73.504 E0.01305
G1 X104.398 Y73.181 E0.01305
G1 X104.896 Y72.973 E0.01305
G1 X105.430 Y72.894 E0.01305
G1 X145.487 Y72.893 E0.96877
G1 X146.306 Y73.054 E0.02021
G1 X147.009 Y73.513 E0.02029
G1 X147.487 Y74.202 E0.02029
G1 X147.671 Y75.021 E0.02029
G1 X147.671 Y137.093 E1.50120
G1 X147.586 Y137.688 E0.01454
G1 X147.340 Y138.240 E0.01463
G1 X146.997 Y138.662 E0.01314
G1 X146.558 Y138.988 E0.01322
G1 X146.056 Y139.194 E0.01314
G1 X145.518 Y139.270 E0.01314
G1 X105.465 Y139.270 E0.96869
G1 X104.933 Y139.192 E0.01300
; PURGING FINISHED
G1 F8640
G1 X104.324 Y138.938 E-0.15219
G1 X103.900 Y138.593 E-0.12626
G1 X103.575 Y138.154 E-0.12626
G1 X103.369 Y137.647 E-0.12626
G1 X103.294 Y137.106 E-0.12626
G1 X103.294 Y136.661 E-0.10279
G1 E-0.04000 F2100.00000
G1 Z0.950 F10800.000
G1 X106.126 Y136.439
G1 Z0.350
G1 E0.80000 F2100.00000
M204 S800
G1 F2700
G1 X106.126 Y75.724 E1.58196
G1 X144.840 Y75.724 E1.00873
G1 X144.840 Y136.439 E1.58196
G1 X106.186 Y136.439 E1.00717
M204 S1000
G1 X105.708 Y136.857 F10800.000
M204 S800
G1 F1500
G1 X105.708 Y75.307 E1.60373
G1 X145.258 Y75.307 E1.03051
G1 X145.258 Y136.857 E1.60373
M73 Q5 S110
M73 P5 R109
G1 X105.768 Y136.857 E1.02894
M204 S1000
G1 X105.784 Y136.464 F10800.000
G1 F8640
G1 X105.765 Y133.565 E-0.76000
G1 E-0.04000 F2100.00000
G1 Z0.950 F10800.000
G1 X143.867 Y136.313
G1 Z0.350
G1 E0.80000 F2100.00000
M204 S1250
G1 F4800
G1 X144.527 Y135.654 E0.02439
G1 X144.527 Y135.061 E0.01550
G1 X143.462 Y136.125 E0.03936
