; generated by Slic3r Prusa Edition 1.41.3+win64 on 2019-03-14 at 10:53:33

; 

; external perimeters extrusion width = 0.45mm
; perimeters extrusion width = 0.45mm
; infill extrusion width = 0.45mm
; solid infill extrusion width = 0.45mm
; top infill extrusion width = 0.40mm
; first layer extrusion width = 0.42mm

M73 P0 R170
M73 Q0 S171
M201 X1000 Y1000 Z1000 E5000 ; sets maximum accelerations, mm/sec^2
M203 X200 Y200 Z12 E120 ; sets maximum feedrates, mm/sec
M204 P1250 R1250 T1250 ; sets acceleration (P, T) and retract acceleration (R), mm/sec^2
M205 X8.00 Y8.00 Z0.40 E1.50 ; sets the jerk limits, mm/sec
M205 S0 T0 ; sets the minimum extruding and travel feed rate, mm/sec
M107
M115 U3.6.0 ; tell printer latest fw version
M83  ; extruder relative mode
M104 S215 ; set extruder temp
M140 S60 ; set bed temp
M190 S60 ; wait for bed temp
M109 S215 ; wait for extruder temp
G28 W ; home all without mesh bed level
G80 ; mesh bed leveling
G1 Y-3.0 F1000.0 ; go outside print area
G92 E0.0
G1 X60.0 E9.0  F1000.0 ; intro line
M73 Q0 S170
M73 P0 R170
G1 X100.0 E12.5  F1000.0 ; intro line
G92 E0.0
M221 S95
M900 K30 ; Filament gcode
G21 ; set units to millimeters
G90 ; use absolute coordinates
M83 ; use relative distances for extrusion
;BEFORE_LAYER_CHANGE
G92 E0.0
;0.2


G1 E-0.80000 F2100.00000
G1 Z0.600 F10800.000
;AFTER_LAYER_CHANGE
;0.2
G1 X101.278 Y75.814
G1 Z0.200
G1 E0.80000 F2100.00000
M204 S1000
G1 F1200
G1 X101.618 Y75.396 E0.01692
G1 X102.051 Y75.073 E0.01692
G1 X102.549 Y74.866 E0.01692
G1 X103.083 Y74.788 E0.01692
G1 X147.136 Y74.787 E1.38126
G1 X147.959 Y74.949 E0.02631
G1 X148.661 Y75.409 E0.02631
G1 X149.138 Y76.100 E0.02631
G1 X149.320 Y76.919 E0.02631
G1 X149.321 Y144.987 E2.13422
G1 X149.235 Y145.585 E0.01896
G1 X148.988 Y146.137 E0.01896
G1 X148.644 Y146.558 E0.01703
G1 X148.208 Y146.882 E0.01703
G1 X147.706 Y147.088 E0.01703
G1 X147.164 Y147.164 E0.01714
G1 X103.118 Y147.164 E1.38103
G1 X102.523 Y147.078 E0.01885
G1 X101.971 Y146.831 E0.01896
G1 X101.548 Y146.485 E0.01714
G1 X101.223 Y146.045 E0.01714
G1 X101.018 Y145.538 E0.01714
G1 X100.944 Y144.996 E0.01714
G1 X100.944 Y76.965 E2.13308
G1 X101.031 Y76.366 E0.01896
G1 X101.253 Y75.869 E0.01708
; PURGING FINISHED
G1 F8640
G1 X101.618 Y75.396 E-0.13801
G1 X102.051 Y75.073 E-0.12458
G1 X102.549 Y74.866 E-0.12458
G1 X103.083 Y74.788 E-0.12458
G1 X104.158 Y74.788 E-0.24825
G1 E-0.04000 F2100.00000
G1 Z0.800 F10800.000
G1 X103.720 Y77.563
G1 Z0.200
G1 E0.80000 F2100.00000
G1 F1200
G1 X146.546 Y77.563 E1.34277
G1 X146.546 Y144.389 E2.09528
G1 X103.720 Y144.389 E1.34277
G1 X103.720 Y77.623 E2.09340
G1 X103.343 Y77.186 F10800.000
G1 F1200
G1 X146.923 Y77.186 E1.36642
G1 X146.923 Y144.766 E2.11892
G1 X103.343 Y144.766 E1.36642
G1 X103.343 Y77.246 E2.11704
G1 X103.721 Y77.316 F10800.000
G1 F8640
G1 X106.634 Y77.241 E-0.76000
G1 E-0.04000 F2100.00000
G1 Z0.800 F10800.000
G1 X146.432 Y78.442
G1 Z0.200
G1 E0.80000 F2100.00000
G1 F1200
G1 X145.836 Y77.845 E0.02655
G1 X145.301 Y77.845 E0.01687
G1 X146.263 Y78.808 E0.04285
G1 X146.263 Y79.343 E0.01687
G1 X144.765 Y77.845 E0.06671
G1 X144.229 Y77.845 E0.01687
G1 X146.263 Y79.879 E0.09057
G1 X146.263 Y80.415 E0.01687
G1 X143.694 Y77.845 E0.11443
G1 X143.158 Y77.845 E0.01687
G1 X146.263 Y80.950 E0.13829
G1 X146.263 Y81.486 E0.01687
G1 X142.622 Y77.845 E0.16215
G1 X142.087 Y77.845 E0.01687
G1 X146.263 Y82.022 E0.18600
G1 X146.263 Y82.557 E0.01687
G1 X141.551 Y77.845 E0.20986
G1 X141.015 Y77.845 E0.01687
G1 X146.263 Y83.093 E0.23372
G1 X146.263 Y83.629 E0.01687
G1 X140.480 Y77.845 E0.25758
G1 X139.944 Y77.845 E0.01687
G1 X146.263 Y84.164 E0.28144
G1 X146.263 Y84.700 E0.01687
G1 X139.408 Y77.845 E0.30530
G1 X138.873 Y77.845 E0.01687
G1 X146.263 Y85.236 E0.32915
G1 X146.263 Y85.771 E0.01687
G1 X138.337 Y77.845 E0.35301
G1 X137.801 Y77.845 E0.01687
G1 X146.263 Y86.307 E0.37687
G1 X146.263 Y86.843 E0.01687
G1 X137.266 Y77.845 E0.40073
G1 X136.730 Y77.845 E0.01687
G1 X146.263 Y87.378 E0.42459
G1 X146.263 Y87.914 E0.01687
G1 X136.194 Y77.845 E0.44845
G1 X135.659 Y77.845 E0.01687
G1 X146.263 Y88.449 E0.47230
G1 X146.263 Y88.985 E0.01687
G1 X135.123 Y77.845 E0.49616
G1 X134.587 Y77.845 E0.01687
G1 X146.263 Y89.521 E0.52002
G1 X146.263 Y90.056 E0.01687
G1 X134.052 Y77.845 E0.54388
G1 X133.516 Y77.845 E0.01687
G1 X146.263 Y90.592 E0.56774
G1 X146.263 Y91.128 E0.01687
G1 X132.980 Y77.845 E0.59160
G1 X132.445 Y77.845 E0.01687
G1 X146.263 Y91.663 E0.61545
G1 X146.263 Y92.199 E0.01687
G1 X131.909 Y77.845 E0.63931
G1 X131.373 Y77.845 E0.01687
G1 X146.263 Y92.735 E0.66317
G1 X146.263 Y93.270 E0.01687
G1 X130.838 Y77.845 E0.68703
G1 X130.302 Y77.845 E0.01687
G1 X146.263 Y93.806 E0.71089
G1 X146.263 Y94.342 E0.01687
G1 X129.767 Y77.845 E0.73475
G1 X129.231 Y77.845 E0.01687
G1 X146.263 Y94.877 E0.75860
G1 X146.263 Y95.413 E0.01687
G1 X128.695 Y77.845 E0.78246
M73 Q0 S169
M73 P0 R169
G1 X128.160 Y77.845 E0.01687
G1 X146.263 Y95.949 E0.80632
G1 X146.263 Y96.484 E0.01687
G1 X127.624 Y77.845 E0.83018
G1 X127.088 Y77.845 E0.01687
G1 X146.263 Y97.020 E0.85404
G1 X146.263 Y97.556 E0.01687
G1 X126.553 Y77.845 E0.87790
G1 X126.017 Y77.845 E0.01687
G1 X146.263 Y98.091 E0.90175
G1 X146.263 Y98.627 E0.01687
G1 X125.481 Y77.845 E0.92561
G1 X124.946 Y77.845 E0.01687
G1 X146.263 Y99.163 E0.94947
G1 X146.263 Y99.698 E0.01687
G1 X124.410 Y77.845 E0.97333
G1 X123.874 Y77.845 E0.01687
G1 X146.263 Y100.234 E0.99719
G1 X146.263 Y100.770 E0.01687
G1 X123.339 Y77.845 E1.02105
G1 X122.803 Y77.845 E0.01687
G1 X146.263 Y101.305 E1.04491
G1 X146.263 Y101.841 E0.01687
G1 X122.267 Y77.845 E1.06876
G1 X121.732 Y77.845 E0.01687
G1 X146.263 Y102.377 E1.09262
G1 X146.263 Y102.912 E0.01687
G1 X121.196 Y77.845 E1.11648
G1 X120.660 Y77.845 E0.01687
G1 X146.263 Y103.448 E1.14034
G1 X146.263 Y103.984 E0.01687
G1 X120.125 Y77.845 E1.16420
G1 X119.589 Y77.845 E0.01687
G1 X146.263 Y104.519 E1.18806
G1 X146.263 Y105.055 E0.01687
G1 X119.053 Y77.845 E1.21191
G1 X118.518 Y77.845 E0.01687
G1 X146.263 Y105.591 E1.23577
G1 X146.263 Y106.126 E0.01687
G1 X117.982 Y77.845 E1.25963
G1 X117.446 Y77.845 E0.01687
G1 X146.263 Y106.662 E1.28349
G1 X146.263 Y107.198 E0.01687
G1 X116.911 Y77.845 E1.30735
G1 X116.375 Y77.845 E0.01687
G1 X146.263 Y107.733 E1.33121
G1 X146.263 Y108.269 E0.01687
G1 X115.839 Y77.845 E1.35506
G1 X115.304 Y77.845 E0.01687
G1 X146.263 Y108.805 E1.37892
G1 X146.263 Y109.340 E0.01687
G1 X114.768 Y77.845 E1.40278
G1 X114.232 Y77.845 E0.01687
G1 X146.263 Y109.876 E1.42664
G1 X146.263 Y110.412 E0.01687
G1 X113.697 Y77.845 E1.45050
G1 X113.161 Y77.845 E0.01687
G1 X146.263 Y110.947 E1.47436
G1 X146.263 Y111.483 E0.01687
G1 X112.625 Y77.845 E1.49821
G1 X112.090 Y77.845 E0.01687
G1 X146.263 Y112.018 E1.52207
G1 X146.263 Y112.554 E0.01687
G1 X111.554 Y77.845 E1.54593
M73 Q1 S168
M73 P1 R168
G1 X111.018 Y77.845 E0.01687
G1 X146.263 Y113.090 E1.56979
G1 X146.263 Y113.625 E0.01687
G1 X110.483 Y77.845 E1.59365
G1 X109.947 Y77.845 E0.01687
G1 X146.263 Y114.161 E1.61751
G1 X146.263 Y114.697 E0.01687
G1 X109.411 Y77.845 E1.64136
G1 X108.876 Y77.845 E0.01687
G1 X146.263 Y115.232 E1.66522
G1 X146.263 Y115.768 E0.01687
G1 X108.340 Y77.845 E1.68908
G1 X107.804 Y77.845 E0.01687
G1 X146.263 Y116.304 E1.71294
G1 X146.263 Y116.839 E0.01687
G1 X107.269 Y77.845 E1.73680
G1 X106.733 Y77.845 E0.01687
G1 X146.263 Y117.375 E1.76066
G1 X146.263 Y117.911 E0.01687
G1 X106.198 Y77.845 E1.78451
G1 X105.662 Y77.845 E0.01687
G1 X146.263 Y118.446 E1.80837
G1 X146.263 Y118.982 E0.01687
G1 X105.126 Y77.845 E1.83223
G1 X104.591 Y77.845 E0.01687
G1 X146.263 Y119.518 E1.85609
G1 X146.263 Y120.053 E0.01687
G1 X104.055 Y77.845 E1.87995
G1 X104.002 Y77.845 E0.00165
G1 X104.002 Y78.329 E0.01522
G1 X146.263 Y120.589 E1.88228
G1 X146.263 Y121.125 E0.01687
G1 X104.002 Y78.864 E1.88228
G1 X104.002 Y79.400 E0.01687
G1 X146.263 Y121.660 E1.88228
G1 X146.263 Y122.196 E0.01687
G1 X104.002 Y79.936 E1.88228
G1 X104.002 Y80.471 E0.01687
G1 X146.263 Y122.732 E1.88228
G1 X146.263 Y123.267 E0.01687
G1 X104.002 Y81.007 E1.88228
G1 X104.002 Y81.543 E0.01687
G1 X146.263 Y123.803 E1.88228
M73 Q1 S167
M73 P1 R167
G1 X146.263 Y124.339 E0.01687
G1 X104.002 Y82.078 E1.88228
G1 X104.002 Y82.614 E0.01687
G1 X146.263 Y124.874 E1.88228
G1 X146.263 Y125.410 E0.01687
G1 X104.002 Y83.150 E1.88228
G1 X104.002 Y83.685 E0.01687
G1 X146.263 Y125.946 E1.88228
G1 X146.263 Y126.481 E0.01687
G1 X104.002 Y84.221 E1.88228
G1 X104.002 Y84.757 E0.01687
G1 X146.263 Y127.017 E1.88228
G1 X146.263 Y127.553 E0.01687
G1 X104.002 Y85.292 E1.88228
G1 X104.002 Y85.828 E0.01687
G1 X146.263 Y128.088 E1.88228
G1 X146.263 Y128.624 E0.01687
G1 X104.002 Y86.364 E1.88228
G1 X104.002 Y86.899 E0.01687
G1 X146.263 Y129.160 E1.88228
G1 X146.263 Y129.695 E0.01687
G1 X104.002 Y87.435 E1.88228
G1 X104.002 Y87.971 E0.01687
G1 X146.263 Y130.231 E1.88228
G1 X146.263 Y130.767 E0.01687
G1 X104.002 Y88.506 E1.88228
G1 X104.002 Y89.042 E0.01687
G1 X146.263 Y131.302 E1.88228
G1 X146.263 Y131.838 E0.01687
G1 X104.002 Y89.578 E1.88228
G1 X104.002 Y90.113 E0.01687
G1 X146.263 Y132.374 E1.88228
G1 X146.263 Y132.909 E0.01687
G1 X104.002 Y90.649 E1.88228
G1 X104.002 Y91.185 E0.01687
G1 X146.263 Y133.445 E1.88228
G1 X146.263 Y133.980 E0.01687
G1 X104.002 Y91.720 E1.88228
G1 X104.002 Y92.256 E0.01687
G1 X146.263 Y134.516 E1.88228
M73 Q2 S166
M73 P2 R166
G1 X146.263 Y135.052 E0.01687
G1 X104.002 Y92.792 E1.88228
G1 X104.002 Y93.327 E0.01687
G1 X146.263 Y135.587 E1.88228
G1 X146.263 Y136.123 E0.01687
G1 X104.002 Y93.863 E1.88228
G1 X104.002 Y94.399 E0.01687
G1 X146.263 Y136.659 E1.88228
G1 X146.263 Y137.194 E0.01687
G1 X104.002 Y94.934 E1.88228
G1 X104.002 Y95.470 E0.01687
G1 X146.263 Y137.730 E1.88228
G1 X146.263 Y138.266 E0.01687
G1 X104.002 Y96.005 E1.88228
G1 X104.002 Y96.541 E0.01687
G1 X146.263 Y138.801 E1.88228
G1 X146.263 Y139.337 E0.01687
G1 X104.002 Y97.077 E1.88228
G1 X104.002 Y97.612 E0.01687
G1 X146.263 Y139.873 E1.88228
G1 X146.263 Y140.408 E0.01687
G1 X104.002 Y98.148 E1.88228
G1 X104.002 Y98.684 E0.01687
G1 X146.263 Y140.944 E1.88228
G1 X146.263 Y141.480 E0.01687
G1 X104.002 Y99.219 E1.88228
G1 X104.002 Y99.755 E0.01687
G1 X146.263 Y142.015 E1.88228
G1 X146.263 Y142.551 E0.01687
G1 X104.002 Y100.291 E1.88228
G1 X104.002 Y100.826 E0.01687
G1 X146.263 Y143.087 E1.88228
G1 X146.263 Y143.622 E0.01687
G1 X104.002 Y101.362 E1.88228
G1 X104.002 Y101.898 E0.01687
G1 X146.211 Y144.106 E1.87995
G1 X145.675 Y144.106 E0.01687
G1 X104.002 Y102.433 E1.85610
G1 X104.002 Y102.969 E0.01687
G1 X145.139 Y144.106 E1.83224
M73 Q2 S165
M73 P2 R165
G1 X144.604 Y144.106 E0.01687
G1 X104.002 Y103.505 E1.80838
G1 X104.002 Y104.040 E0.01687
G1 X144.068 Y144.106 E1.78452
G1 X143.532 Y144.106 E0.01687
G1 X104.002 Y104.576 E1.76066
G1 X104.002 Y105.112 E0.01687
G1 X142.997 Y144.106 E1.73680
G1 X142.461 Y144.106 E0.01687
G1 X104.002 Y105.647 E1.71295
G1 X104.002 Y106.183 E0.01687
G1 X141.925 Y144.106 E1.68909
G1 X141.390 Y144.106 E0.01687
G1 X104.002 Y106.719 E1.66523
G1 X104.002 Y107.254 E0.01687
G1 X140.854 Y144.106 E1.64137
G1 X140.318 Y144.106 E0.01687
G1 X104.002 Y107.790 E1.61751
G1 X104.002 Y108.326 E0.01687
G1 X139.783 Y144.106 E1.59365
G1 X139.247 Y144.106 E0.01687
G1 X104.002 Y108.861 E1.56980
G1 X104.002 Y109.397 E0.01687
G1 X138.711 Y144.106 E1.54594
G1 X138.176 Y144.106 E0.01687
G1 X104.002 Y109.933 E1.52208
G1 X104.002 Y110.468 E0.01687
G1 X137.640 Y144.106 E1.49822
G1 X137.104 Y144.106 E0.01687
G1 X104.002 Y111.004 E1.47436
G1 X104.002 Y111.540 E0.01687
G1 X136.569 Y144.106 E1.45050
G1 X136.033 Y144.106 E0.01687
G1 X104.002 Y112.075 E1.42665
G1 X104.002 Y112.611 E0.01687
G1 X135.497 Y144.106 E1.40279
G1 X134.962 Y144.106 E0.01687
G1 X104.002 Y113.147 E1.37893
G1 X104.002 Y113.682 E0.01687
G1 X134.426 Y144.106 E1.35507
G1 X133.890 Y144.106 E0.01687
G1 X104.002 Y114.218 E1.33121
G1 X104.002 Y114.754 E0.01687
G1 X133.355 Y144.106 E1.30735
G1 X132.819 Y144.106 E0.01687
G1 X104.002 Y115.289 E1.28350
G1 X104.002 Y115.825 E0.01687
G1 X132.283 Y144.106 E1.25964
G1 X131.748 Y144.106 E0.01687
G1 X104.002 Y116.361 E1.23578
M73 Q3 S164
M73 P3 R164
G1 X104.002 Y116.896 E0.01687
G1 X131.212 Y144.106 E1.21192
G1 X130.676 Y144.106 E0.01687
G1 X104.002 Y117.432 E1.18806
G1 X104.002 Y117.968 E0.01687
G1 X130.141 Y144.106 E1.16420
G1 X129.605 Y144.106 E0.01687
G1 X104.002 Y118.503 E1.14034
G1 X104.002 Y119.039 E0.01687
G1 X129.069 Y144.106 E1.11649
G1 X128.534 Y144.106 E0.01687
G1 X104.002 Y119.574 E1.09263
G1 X104.002 Y120.110 E0.01687
G1 X127.998 Y144.106 E1.06877
G1 X127.462 Y144.106 E0.01687
G1 X104.002 Y120.646 E1.04491
G1 X104.002 Y121.181 E0.01687
G1 X126.927 Y144.106 E1.02105
G1 X126.391 Y144.106 E0.01687
G1 X104.002 Y121.717 E0.99719
G1 X104.002 Y122.253 E0.01687
G1 X125.855 Y144.106 E0.97334
G1 X125.320 Y144.106 E0.01687
G1 X104.002 Y122.788 E0.94948
G1 X104.002 Y123.324 E0.01687
G1 X124.784 Y144.106 E0.92562
G1 X124.248 Y144.106 E0.01687
G1 X104.002 Y123.860 E0.90176
G1 X104.002 Y124.395 E0.01687
G1 X123.713 Y144.106 E0.87790
G1 X123.177 Y144.106 E0.01687
G1 X104.002 Y124.931 E0.85404
G1 X104.002 Y125.467 E0.01687
G1 X122.642 Y144.106 E0.83019
G1 X122.106 Y144.106 E0.01687
G1 X104.002 Y126.002 E0.80633
G1 X104.002 Y126.538 E0.01687
G1 X121.570 Y144.106 E0.78247
G1 X121.035 Y144.106 E0.01687
G1 X104.002 Y127.074 E0.75861
G1 X104.002 Y127.609 E0.01687
G1 X120.499 Y144.106 E0.73475
G1 X119.963 Y144.106 E0.01687
G1 X104.002 Y128.145 E0.71089
G1 X104.002 Y128.681 E0.01687
G1 X119.428 Y144.106 E0.68704
G1 X118.892 Y144.106 E0.01687
G1 X104.002 Y129.216 E0.66318
G1 X104.002 Y129.752 E0.01687
G1 X118.356 Y144.106 E0.63932
G1 X117.821 Y144.106 E0.01687
G1 X104.002 Y130.288 E0.61546
G1 X104.002 Y130.823 E0.01687
G1 X117.285 Y144.106 E0.59160
G1 X116.749 Y144.106 E0.01687
G1 X104.002 Y131.359 E0.56774
G1 X104.002 Y131.895 E0.01687
G1 X116.214 Y144.106 E0.54389
G1 X115.678 Y144.106 E0.01687
G1 X104.002 Y132.430 E0.52003
G1 X104.002 Y132.966 E0.01687
G1 X115.142 Y144.106 E0.49617
G1 X114.607 Y144.106 E0.01687
G1 X104.002 Y133.502 E0.47231
G1 X104.002 Y134.037 E0.01687
G1 X114.071 Y144.106 E0.44845
G1 X113.535 Y144.106 E0.01687
G1 X104.002 Y134.573 E0.42459
G1 X104.002 Y135.109 E0.01687
G1 X113.000 Y144.106 E0.40074
G1 X112.464 Y144.106 E0.01687
G1 X104.002 Y135.644 E0.37688
G1 X104.002 Y136.180 E0.01687
G1 X111.928 Y144.106 E0.35302
G1 X111.393 Y144.106 E0.01687
G1 X104.002 Y136.716 E0.32916
G1 X104.002 Y137.251 E0.01687
G1 X110.857 Y144.106 E0.30530
G1 X110.321 Y144.106 E0.01687
G1 X104.002 Y137.787 E0.28144
G1 X104.002 Y138.323 E0.01687
G1 X109.786 Y144.106 E0.25759
G1 X109.250 Y144.106 E0.01687
G1 X104.002 Y138.858 E0.23373
G1 X104.002 Y139.394 E0.01687
G1 X108.714 Y144.106 E0.20987
G1 X108.179 Y144.106 E0.01687
G1 X104.002 Y139.930 E0.18601
G1 X104.002 Y140.465 E0.01687
G1 X107.643 Y144.106 E0.16215
G1 X107.107 Y144.106 E0.01687
G1 X104.002 Y141.001 E0.13829
G1 X104.002 Y141.537 E0.01687
G1 X106.572 Y144.106 E0.11444
G1 X106.036 Y144.106 E0.01687
G1 X104.002 Y142.072 E0.09058
G1 X104.002 Y142.608 E0.01687
G1 X105.500 Y144.106 E0.06672
G1 X104.965 Y144.106 E0.01687
G1 X104.002 Y143.143 E0.04286
G1 X104.002 Y143.679 E0.01687
G1 X104.599 Y144.275 E0.02656
M106 S255
;BEFORE_LAYER_CHANGE
G92 E0.0
;0.35


G1 F8640
G1 X104.002 Y143.679 E-0.19472
G1 X104.002 Y143.143 E-0.12369
G1 X104.965 Y144.106 E-0.31423
G1 X105.500 Y144.106 E-0.12368
G1 X105.489 Y144.094 E-0.00368
G1 E-0.04000 F2100.00000
G1 Z0.800 F10800.000
;AFTER_LAYER_CHANGE
;0.35
G1 X102.523 Y147.078
G1 Z0.350
G1 E0.80000 F2100.00000
G1 F3000
G1 X101.971 Y146.831 E0.01463
G1 X101.548 Y146.485 E0.01322
G1 X101.223 Y146.045 E0.01322
G1 X101.018 Y145.538 E0.01322
G1 X100.944 Y144.996 E0.01322
G1 X100.944 Y76.965 E1.64533
G1 X101.031 Y76.366 E0.01463
G1 X101.278 Y75.814 E0.01463
G1 X101.618 Y75.396 E0.01305
G1 X102.051 Y75.073 E0.01305
G1 X102.549 Y74.866 E0.01305
G1 X103.083 Y74.788 E0.01305
G1 X147.136 Y74.787 E1.06543
G1 X147.959 Y74.949 E0.02029
G1 X148.661 Y75.409 E0.02029
G1 X149.138 Y76.100 E0.02029
G1 X149.320 Y76.919 E0.02029
G1 X149.321 Y144.987 E1.64622
G1 X149.235 Y145.585 E0.01463
G1 X148.988 Y146.137 E0.01463
