; generated by Slic3r Prusa Edition 1.41.3+win64 on 2019-03-28 at 12:49:05

; 

; external perimeters extrusion width = 0.45mm
; perimeters extrusion width = 0.45mm
; infill extrusion width = 0.45mm
; solid infill extrusion width = 0.45mm
; top infill extrusion width = 0.40mm
; support material extrusion width = 0.35mm
; first layer extrusion width = 0.42mm

M73 P0 R38
M73 Q0 S38
M201 X1000 Y1000 Z1000 E5000 ; sets maximum accelerations, mm/sec^2
M203 X200 Y200 Z12 E120 ; sets maximum feedrates, mm/sec
M204 P1250 R1250 T1250 ; sets acceleration (P, T) and retract acceleration (R), mm/sec^2
M205 X8.00 Y8.00 Z0.40 E1.50 ; sets the jerk limits, mm/sec
M205 S0 T0 ; sets the minimum extruding and travel feed rate, mm/sec
M107
M115 U3.6.0 ; tell printer latest fw version
M83  ; extruder relative mode
M104 S215 ; set extruder temp
M140 S60 ; set bed temp
M190 S60 ; wait for bed temp
M109 S215 ; wait for extruder temp
G28 W ; home all without mesh bed level
G80 ; mesh bed leveling
G1 Y-3.0 F1000.0 ; go outside print area
G92 E0.0
G1 X60.0 E9.0  F1000.0 ; intro line
M73 Q0 S38
M73 P0 R38
G1 X100.0 E12.5  F1000.0 ; intro line
G92 E0.0
M221 S95
M900 K30 ; Filament gcode
G21 ; set units to millimeters
G90 ; use absolute coordinates
M83 ; use relative distances for extrusion
;BEFORE_LAYER_CHANGE
G92 E0.0
;0.2


G1 E-0.80000 F2100.00000
G1 Z0.600 F10800.000
;AFTER_LAYER_CHANGE
;0.2
G1 X155.885 Y81.343
G1 Z0.200
G1 E0.80000 F2100.00000
M204 S1000
G1 F1200
G1 X155.422 Y81.999 E0.02518
G1 X153.076 Y84.223 E0.10135
G1 X131.997 Y102.476 E0.87429
G1 X130.884 Y103.330 E0.04397
G1 X128.706 Y104.693 E0.08057
G1 X126.143 Y105.866 E0.08838
G1 X123.521 Y106.660 E0.08587
G1 X122.181 Y106.925 E0.04285
G1 X119.635 Y107.181 E0.08022
G1 X116.854 Y107.102 E0.08724
G1 X114.184 Y106.666 E0.08482
G1 X111.579 Y105.881 E0.08530
G1 X109.053 Y104.734 E0.08700
G1 X107.877 Y104.051 E0.04263
G1 X105.789 Y102.559 E0.08046
G1 X103.781 Y100.692 E0.08597
G1 X102.824 Y99.601 E0.04550
G1 X101.287 Y97.455 E0.08277
G1 X100.569 Y96.208 E0.04513
G1 X99.483 Y93.806 E0.08263
G1 X99.026 Y92.452 E0.04481
G1 X98.430 Y89.885 E0.08263
G1 X98.247 Y88.468 E0.04481
G1 X98.164 Y85.835 E0.08259
G1 X98.261 Y84.408 E0.04485
G1 X98.692 Y81.818 E0.08231
G1 X99.068 Y80.428 E0.04513
G1 X100.000 Y77.964 E0.08263
G1 X101.228 Y75.659 E0.08186
G1 X102.026 Y74.458 E0.04522
G1 X102.903 Y73.321 E0.04503
G1 X104.682 Y71.425 E0.08151
G1 X106.807 Y69.681 E0.08620
G1 X109.101 Y68.257 E0.08463
G1 X111.582 Y67.136 E0.08538
G1 X114.186 Y66.351 E0.08529
G1 X134.776 Y62.875 E0.65472
G1 X142.725 Y62.859 E0.24921
G1 X143.242 Y62.921 E0.01635
G1 X152.618 Y65.267 E0.30304
G1 X153.295 Y65.604 E0.02372
G1 X153.819 Y66.155 E0.02383
G1 X155.929 Y71.187 E0.17109
G1 X156.074 Y71.782 E0.01919
G1 X156.081 Y80.568 E0.27548
G1 X155.900 Y81.285 E0.02319
; PURGING FINISHED
G1 F8640
G1 X155.422 Y81.999 E-0.19844
G1 X153.657 Y83.672 E-0.56156
G1 E-0.04000 F2100.00000
G1 Z0.800 F10800.000
G1 X153.897 Y80.429
G1 Z0.200
G1 E0.80000 F2100.00000
G1 F1200
G1 X153.897 Y72.001 E0.26426
G1 X153.143 Y72.001 E0.02365
G1 X153.143 Y80.259 E0.25894
G1 X152.389 Y80.259 E0.02365
G1 X152.389 Y72.001 E0.25894
G1 X151.996 Y72.001 E0.01231
G1 X151.996 Y67.365 E0.14535
G1 X151.634 Y67.365 E0.01133
G1 X151.634 Y82.577 E0.47696
G1 X150.880 Y82.577 E0.02365
G1 X150.880 Y67.365 E0.47696
G1 X150.126 Y67.365 E0.02365
G1 X150.126 Y82.577 E0.47696
G1 X149.372 Y82.577 E0.02365
G1 X149.372 Y67.365 E0.47696
G1 X148.618 Y67.365 E0.02365
G1 X148.618 Y82.577 E0.47696
G1 X147.864 Y82.577 E0.02365
G1 X147.864 Y67.365 E0.47696
G1 X147.109 Y67.365 E0.02365
G1 X147.109 Y84.895 E0.54963
G1 X146.355 Y84.895 E0.02365
G1 X146.355 Y67.365 E0.54963
G1 X145.601 Y67.365 E0.02365
G1 X145.601 Y84.895 E0.54963
G1 X144.847 Y84.895 E0.02365
G1 X144.847 Y67.365 E0.54963
G1 X144.093 Y67.365 E0.02365
G1 X144.093 Y84.895 E0.54963
G1 X143.339 Y84.895 E0.02365
G1 X143.339 Y67.365 E0.54963
G1 X142.725 Y67.365 E0.01925
G1 X142.725 Y65.047 E0.07267
G1 X142.584 Y65.047 E0.00439
G1 X142.584 Y87.213 E0.69498
G1 X141.830 Y87.213 E0.02365
G1 X141.830 Y65.047 E0.69498
G1 X141.076 Y65.047 E0.02365
G1 X141.076 Y87.213 E0.69498
G1 X140.322 Y87.213 E0.02365
G1 X140.322 Y65.047 E0.69498
G1 X139.568 Y65.047 E0.02365
G1 X139.568 Y87.213 E0.69498
G1 X138.814 Y87.213 E0.02365
G1 X138.814 Y65.047 E0.69498
G1 X138.060 Y65.047 E0.02365
G1 X138.060 Y87.213 E0.69498
G1 X137.305 Y87.213 E0.02365
G1 X137.305 Y85.172 E0.06397
G1 X136.551 Y85.172 E0.02365
G1 X136.551 Y87.213 E0.06397
G1 X135.797 Y87.213 E0.02365
G1 X135.797 Y85.172 E0.06397
G1 X135.043 Y85.172 E0.02365
G1 X135.043 Y87.382 E0.06929
G1 F8640
G1 X135.043 Y85.172 E-0.51029
G1 X135.797 Y85.172 E-0.17414
G1 X135.797 Y85.500 E-0.07558
G1 E-0.04000 F2100.00000
G1 Z0.800 F10800.000
G1 X137.305 Y83.312
G1 Z0.200
G1 E0.80000 F2100.00000
G1 F1200
G1 X137.305 Y65.047 E0.57267
G1 X136.551 Y65.047 E0.02365
G1 X136.551 Y79.871 E0.46477
G1 X136.093 Y78.756 E0.03780
G1 X135.797 Y78.150 E0.02113
G1 X135.797 Y65.047 E0.41083
G1 X135.043 Y65.047 E0.02365
G1 X135.043 Y76.761 E0.36726
G1 X134.289 Y75.599 E0.04344
G1 X134.289 Y67.365 E0.25815
G1 X133.535 Y67.365 E0.02365
G1 X133.535 Y74.602 E0.22690
G1 X132.780 Y73.731 E0.03613
G1 X132.780 Y67.365 E0.19958
G1 X132.026 Y67.365 E0.02365
G1 X132.026 Y72.958 E0.17537
G1 X131.800 Y72.732 E0.01002
G1 X131.272 Y72.267 E0.02208
G1 X131.272 Y67.365 E0.15368
G1 X130.518 Y67.365 E0.02365
G1 X130.518 Y71.642 E0.13408
G1 X129.764 Y71.073 E0.02961
G1 X129.764 Y69.628 E0.04531
G1 X129.010 Y70.483 E0.03576
G1 X129.010 Y70.771 E0.00901
G1 F8640
G1 X129.010 Y70.483 E-0.06636
G1 X129.764 Y69.628 E-0.26333
G1 X129.764 Y71.073 E-0.33366
G1 X130.098 Y71.325 E-0.09665
G1 E-0.04000 F2100.00000
G1 Z0.800 F10800.000
G1 X136.591 Y84.172
G1 Z0.200
G1 E0.80000 F2100.00000
G1 F1200
G1 X133.382 Y84.172 E0.10061
G1 X133.290 Y83.603 E0.01808
G1 X133.046 Y82.587 E0.03274
G1 X132.699 Y81.491 E0.03607
G1 X132.286 Y80.472 E0.03445
G1 X131.799 Y79.488 E0.03442
G1 X131.241 Y78.543 E0.03442
G1 X130.613 Y77.642 E0.03442
G1 X129.921 Y76.791 E0.03442
G1 X129.167 Y75.993 E0.03442
G1 X128.355 Y75.253 E0.03442
G1 X127.491 Y74.576 E0.03442
G1 X126.579 Y73.966 E0.03442
G1 X125.623 Y73.425 E0.03442
G1 X124.631 Y72.956 E0.03442
G1 X123.606 Y72.563 E0.03442
G1 X122.606 Y72.262 E0.03274
G1 X121.483 Y72.010 E0.03607
G1 X120.396 Y71.854 E0.03445
G1 X119.300 Y71.779 E0.03442
G1 X118.203 Y71.785 E0.03442
G1 X117.108 Y71.874 E0.03442
G1 X116.024 Y72.043 E0.03442
G1 X115.007 Y72.281 E0.03274
G1 X113.908 Y72.622 E0.03607
G1 X112.887 Y73.028 E0.03445
G1 X111.900 Y73.508 E0.03442
G1 X110.952 Y74.061 E0.03442
G1 X110.047 Y74.683 E0.03442
G1 X109.191 Y75.371 E0.03442
G1 X108.389 Y76.120 E0.03442
G1 X107.644 Y76.927 E0.03442
G1 X106.962 Y77.787 E0.03442
G1 X106.346 Y78.695 E0.03442
G1 X105.799 Y79.647 E0.03442
G1 X105.324 Y80.637 E0.03442
G1 X104.925 Y81.660 E0.03442
G1 X104.602 Y82.709 E0.03442
G1 X104.359 Y83.780 E0.03442
G1 X104.196 Y84.865 E0.03442
G1 X104.114 Y85.960 E0.03442
G1 X104.114 Y87.058 E0.03442
G1 X104.196 Y88.153 E0.03442
G1 X104.359 Y89.238 E0.03442
G1 X104.591 Y90.256 E0.03274
G1 X104.924 Y91.357 E0.03607
G1 X105.324 Y92.381 E0.03445
G1 X105.799 Y93.371 E0.03442
G1 X106.346 Y94.322 E0.03442
G1 X106.962 Y95.231 E0.03442
G1 X107.644 Y96.091 E0.03442
G1 X108.389 Y96.898 E0.03442
G1 X109.191 Y97.647 E0.03442
G1 X110.047 Y98.335 E0.03442
G1 X110.952 Y98.957 E0.03442
G1 X111.900 Y99.509 E0.03442
G1 X112.887 Y99.990 E0.03442
G1 X113.907 Y100.396 E0.03442
G1 X114.955 Y100.725 E0.03442
G1 X116.024 Y100.974 E0.03442
G1 X117.108 Y101.144 E0.03442
G1 X118.203 Y101.233 E0.03442
G1 X119.300 Y101.239 E0.03442
G1 X120.396 Y101.164 E0.03442
G1 X121.482 Y101.008 E0.03442
G1 X122.554 Y100.771 E0.03442
G1 X123.606 Y100.455 E0.03442
G1 X124.631 Y100.062 E0.03442
G1 X125.623 Y99.593 E0.03442
G1 X126.579 Y99.052 E0.03442
G1 X127.491 Y98.441 E0.03442
G1 X128.355 Y97.764 E0.03442
G1 X129.167 Y97.025 E0.03442
G1 X129.921 Y96.227 E0.03442
G1 X130.613 Y95.376 E0.03442
G1 X131.241 Y94.475 E0.03442
G1 X131.799 Y93.530 E0.03442
G1 X132.286 Y92.546 E0.03442
G1 X132.698 Y91.528 E0.03442
G1 X133.033 Y90.483 E0.03442
G1 X133.290 Y89.415 E0.03442
G1 X133.382 Y88.846 E0.01808
G1 X136.592 Y88.846 E0.10062
G1 X136.525 Y89.367 E0.01648
G1 X136.300 Y90.519 E0.03679
G1 X136.000 Y91.653 E0.03679
G1 X135.626 Y92.766 E0.03679
G1 X135.184 Y93.842 E0.03648
G1 X134.664 Y94.906 E0.03711
G1 X134.081 Y95.923 E0.03679
G1 X133.431 Y96.901 E0.03679
G1 X132.720 Y97.834 E0.03679
G1 X131.948 Y98.718 E0.03679
G1 X131.121 Y99.550 E0.03679
G1 X130.248 Y100.320 E0.03648
G1 X129.311 Y101.043 E0.03711
G1 X128.337 Y101.698 E0.03679
G1 X127.322 Y102.287 E0.03679
G1 X126.271 Y102.808 E0.03679
G1 X125.188 Y103.260 E0.03679
G1 X124.077 Y103.639 E0.03679
G1 X122.945 Y103.945 E0.03679
G1 X121.794 Y104.176 E0.03679
G1 X120.631 Y104.332 E0.03679
G1 X119.470 Y104.410 E0.03648
G1 X118.286 Y104.413 E0.03711
G1 X117.116 Y104.338 E0.03679
G1 X115.952 Y104.187 E0.03679
G1 X114.801 Y103.960 E0.03679
G1 X113.667 Y103.658 E0.03679
G1 X112.555 Y103.282 E0.03679
G1 X111.470 Y102.834 E0.03679
G1 X110.417 Y102.317 E0.03679
G1 X109.409 Y101.736 E0.03648
G1 X108.423 Y101.080 E0.03711
G1 X107.492 Y100.367 E0.03679
G1 X106.616 Y99.601 E0.03648
G1 X105.778 Y98.765 E0.03711
G1 X105.004 Y97.883 E0.03679
G1 X104.295 Y96.961 E0.03648
G1 X103.636 Y95.977 E0.03711
G1 X103.049 Y94.962 E0.03679
G1 X102.529 Y93.909 E0.03679
G1 X102.080 Y92.825 E0.03679
G1 X101.702 Y91.714 E0.03679
G1 X101.398 Y90.581 E0.03679
G1 X101.169 Y89.430 E0.03679
G1 X101.015 Y88.267 E0.03679
G1 X100.939 Y87.106 E0.03648
G1 X100.939 Y85.922 E0.03711
G1 X101.015 Y84.751 E0.03679
G1 X101.168 Y83.598 E0.03648
G1 X101.398 Y82.437 E0.03711
G1 X101.702 Y81.303 E0.03679
G1 X102.080 Y80.192 E0.03679
G1 X102.529 Y79.108 E0.03679
G1 X103.049 Y78.056 E0.03679
G1 X103.636 Y77.040 E0.03679
G1 X104.289 Y76.065 E0.03679
G1 X105.004 Y75.134 E0.03679
G1 X105.778 Y74.253 E0.03679
G1 X106.609 Y73.424 E0.03679
G1 X107.492 Y72.651 E0.03679
G1 X108.416 Y71.944 E0.03648
G1 X109.400 Y71.287 E0.03711
G1 X110.417 Y70.701 E0.03679
G1 X111.461 Y70.188 E0.03648
G1 X112.555 Y69.736 E0.03711
G1 X113.667 Y69.360 E0.03679
G1 X114.801 Y69.058 E0.03679
G1 X115.952 Y68.831 E0.03679
G1 X117.116 Y68.680 E0.03679
G1 X118.287 Y68.605 E0.03679
G1 X119.450 Y68.607 E0.03648
G1 X120.631 Y68.686 E0.03711
G1 X121.794 Y68.841 E0.03679
G1 X122.945 Y69.073 E0.03679
G1 X124.077 Y69.379 E0.03679
G1 X125.188 Y69.758 E0.03679
G1 X126.271 Y70.210 E0.03679
G1 X127.322 Y70.731 E0.03679
G1 X128.337 Y71.320 E0.03679
G1 X129.311 Y71.975 E0.03679
G1 X130.241 Y72.691 E0.03679
G1 X131.121 Y73.467 E0.03679
G1 X131.952 Y74.303 E0.03697
G1 X132.710 Y75.173 E0.03617
G1 X133.433 Y76.118 E0.03731
G1 X134.090 Y77.110 E0.03731
G1 X134.664 Y78.111 E0.03617
G1 X135.179 Y79.164 E0.03674
G1 X135.624 Y80.247 E0.03673
G1 X136.003 Y81.376 E0.03731
G1 X136.298 Y82.491 E0.03617
G1 X136.523 Y83.641 E0.03674
G1 X136.584 Y84.112 E0.01491
G1 X137.020 Y84.549 F10800.000
G1 F1200
G1 X133.062 Y84.549 E0.12411
G1 X132.920 Y83.677 E0.02769
G1 X132.682 Y82.689 E0.03188
G1 X132.343 Y81.619 E0.03519
G1 X131.942 Y80.627 E0.03355
G1 X131.468 Y79.668 E0.03354
G1 X130.923 Y78.747 E0.03354
G1 X130.312 Y77.869 E0.03354
G1 X129.637 Y77.039 E0.03354
G1 X128.902 Y76.262 E0.03354
G1 X128.112 Y75.542 E0.03354
G1 X127.269 Y74.882 E0.03354
G1 X126.381 Y74.287 E0.03354
G1 X125.450 Y73.760 E0.03354
G1 X124.482 Y73.303 E0.03354
G1 X123.484 Y72.920 E0.03354
G1 X122.510 Y72.627 E0.03188
G1 X121.415 Y72.381 E0.03519
G1 X120.356 Y72.229 E0.03355
G1 X119.289 Y72.156 E0.03354
G1 X118.219 Y72.162 E0.03354
G1 X117.153 Y72.248 E0.03354
G1 X116.096 Y72.414 E0.03354
G1 X115.106 Y72.645 E0.03188
G1 X114.034 Y72.977 E0.03519
G1 X113.040 Y73.373 E0.03355
G1 X112.078 Y73.841 E0.03354
G1 X111.154 Y74.380 E0.03354
G1 X110.272 Y74.986 E0.03354
G1 X109.438 Y75.656 E0.03354
G1 X108.656 Y76.386 E0.03354
G1 X107.931 Y77.172 E0.03354
G1 X107.266 Y78.010 E0.03354
G1 X106.666 Y78.895 E0.03354
G1 X106.133 Y79.823 E0.03354
G1 X105.670 Y80.787 E0.03354
G1 X105.281 Y81.784 E0.03354
G1 X104.967 Y82.806 E0.03354
G1 X104.730 Y83.849 E0.03354
G1 X104.571 Y84.907 E0.03354
G1 X104.491 Y85.974 E0.03354
G1 X104.491 Y87.044 E0.03354
G1 X104.571 Y88.110 E0.03354
G1 X104.730 Y89.168 E0.03354
G1 X104.955 Y90.160 E0.03188
G1 X105.281 Y91.234 E0.03519
G1 X105.670 Y92.230 E0.03355
G1 X106.133 Y93.195 E0.03354
G1 X106.666 Y94.122 E0.03354
G1 X107.266 Y95.008 E0.03354
G1 X107.931 Y95.846 E0.03354
G1 X108.656 Y96.632 E0.03354
G1 X109.438 Y97.362 E0.03354
G1 X110.272 Y98.032 E0.03354
G1 X111.154 Y98.638 E0.03354
G1 X112.078 Y99.176 E0.03354
G1 X113.040 Y99.645 E0.03354
G1 X114.034 Y100.040 E0.03354
G1 X115.054 Y100.361 E0.03354
G1 X116.096 Y100.604 E0.03354
G1 X117.153 Y100.769 E0.03354
G1 X118.219 Y100.856 E0.03354
G1 X119.289 Y100.862 E0.03354
G1 X120.356 Y100.789 E0.03354
G1 X121.415 Y100.637 E0.03354
G1 X122.459 Y100.406 E0.03354
G1 X123.484 Y100.098 E0.03354
G1 X124.482 Y99.715 E0.03354
G1 X125.450 Y99.258 E0.03354
G1 X126.381 Y98.731 E0.03354
G1 X127.269 Y98.136 E0.03354
G1 X128.112 Y97.476 E0.03354
G1 X128.902 Y96.756 E0.03354
G1 X129.637 Y95.978 E0.03354
G1 X130.312 Y95.149 E0.03354
G1 X130.923 Y94.271 E0.03354
G1 X131.468 Y93.350 E0.03354
G1 X131.942 Y92.391 E0.03354
G1 X132.343 Y91.399 E0.03354
G1 X132.670 Y90.381 E0.03354
G1 X132.920 Y89.341 E0.03354
G1 X133.062 Y88.469 E0.02769
G1 X137.020 Y88.469 E0.12411
G1 X136.897 Y89.427 E0.03030
G1 X136.667 Y90.603 E0.03757
G1 X136.361 Y91.762 E0.03757
G1 X135.979 Y92.898 E0.03757
G1 X135.528 Y93.997 E0.03725
G1 X134.998 Y95.082 E0.03789
G1 X134.402 Y96.122 E0.03757
G1 X133.739 Y97.120 E0.03757
G1 X133.012 Y98.073 E0.03757
G1 X132.224 Y98.976 E0.03757
G1 X131.379 Y99.825 E0.03757
G1 X130.488 Y100.611 E0.03725
G1 X129.532 Y101.349 E0.03788
G1 X128.537 Y102.017 E0.03757
G1 X127.501 Y102.619 E0.03757
G1 X126.428 Y103.151 E0.03757
G1 X125.322 Y103.612 E0.03757
G1 X124.188 Y104.000 E0.03757
G1 X123.031 Y104.312 E0.03757
G1 X121.856 Y104.549 E0.03757
G1 X120.669 Y104.707 E0.03757
G1 X119.483 Y104.787 E0.03725
G1 X118.275 Y104.790 E0.03788
G1 X117.079 Y104.714 E0.03757
G1 X115.891 Y104.559 E0.03757
G1 X114.715 Y104.327 E0.03757
G1 X113.558 Y104.019 E0.03757
G1 X112.422 Y103.635 E0.03757
G1 X111.315 Y103.178 E0.03757
G1 X110.240 Y102.650 E0.03757
G1 X109.210 Y102.057 E0.03725
G1 X108.204 Y101.387 E0.03788
G1 X107.253 Y100.659 E0.03757
G1 X106.359 Y99.876 E0.03725
G1 X105.503 Y99.023 E0.03788
G1 X104.712 Y98.123 E0.03757
G1 X103.988 Y97.181 E0.03725
G1 X103.316 Y96.177 E0.03789
G1 X102.716 Y95.140 E0.03757
G1 X102.186 Y94.065 E0.03757
G1 X101.727 Y92.958 E0.03757
G1 X101.341 Y91.824 E0.03757
G1 X101.031 Y90.667 E0.03757
G1 X100.797 Y89.492 E0.03757
G1 X100.640 Y88.304 E0.03757
G1 X100.562 Y87.118 E0.03725
G1 X100.562 Y85.910 E0.03788
G1 X100.640 Y84.714 E0.03757
G1 X100.795 Y83.536 E0.03725
G1 X101.031 Y82.351 E0.03788
G1 X101.341 Y81.194 E0.03757
G1 X101.727 Y80.059 E0.03757
G1 X102.186 Y78.953 E0.03757
G1 X102.716 Y77.878 E0.03757
G1 X103.316 Y76.841 E0.03757
G1 X103.982 Y75.845 E0.03757
G1 X104.712 Y74.895 E0.03757
G1 X105.503 Y73.995 E0.03757
G1 X106.351 Y73.148 E0.03757
G1 X107.253 Y72.359 E0.03757
G1 X108.196 Y71.637 E0.03725
G1 X109.201 Y70.966 E0.03788
G1 X110.240 Y70.368 E0.03757
G1 X111.306 Y69.844 E0.03725
G1 X112.422 Y69.382 E0.03788
G1 X113.558 Y68.999 E0.03757
G1 X114.715 Y68.691 E0.03757
G1 X115.891 Y68.459 E0.03757
G1 X117.079 Y68.304 E0.03757
G1 X118.275 Y68.228 E0.03757
G1 X119.463 Y68.230 E0.03725
G1 X120.669 Y68.310 E0.03788
G1 X121.856 Y68.469 E0.03757
G1 X123.031 Y68.705 E0.03757
G1 X124.188 Y69.018 E0.03757
G1 X125.322 Y69.405 E0.03757
G1 X126.428 Y69.866 E0.03757
G1 X127.501 Y70.399 E0.03757
G1 X128.537 Y71.000 E0.03757
G1 X129.532 Y71.668 E0.03757
G1 X130.481 Y72.400 E0.03757
G1 X131.379 Y73.193 E0.03757
G1 X132.228 Y74.046 E0.03775
G1 X133.003 Y74.934 E0.03694
G1 X133.740 Y75.900 E0.03809
G1 X134.411 Y76.912 E0.03809
G1 X134.997 Y77.934 E0.03694
G1 X135.523 Y79.009 E0.03751
G1 X135.978 Y80.116 E0.03751
G1 X136.364 Y81.267 E0.03809
