; generated by Slic3r Prusa Edition 1.41.3+win64 on 2019-03-28 at 14:32:41

; 

; external perimeters extrusion width = 0.45mm
; perimeters extrusion width = 0.45mm
; infill extrusion width = 0.45mm
; solid infill extrusion width = 0.45mm
; top infill extrusion width = 0.40mm
; support material extrusion width = 0.35mm
; first layer extrusion width = 0.42mm

M73 P0 R103
M73 Q0 S104
M201 X1000 Y1000 Z1000 E5000 ; sets maximum accelerations, mm/sec^2
M203 X200 Y200 Z12 E120 ; sets maximum feedrates, mm/sec
M204 P1250 R1250 T1250 ; sets acceleration (P, T) and retract acceleration (R), mm/sec^2
M205 X8.00 Y8.00 Z0.40 E1.50 ; sets the jerk limits, mm/sec
M205 S0 T0 ; sets the minimum extruding and travel feed rate, mm/sec
M107
M115 U3.6.0 ; tell printer latest fw version
M83  ; extruder relative mode
M104 S215 ; set extruder temp
M140 S60 ; set bed temp
M190 S60 ; wait for bed temp
M109 S215 ; wait for extruder temp
G28 W ; home all without mesh bed level
G80 ; mesh bed leveling
G1 Y-3.0 F1000.0 ; go outside print area
G92 E0.0
G1 X60.0 E9.0  F1000.0 ; intro line
M73 Q0 S104
M73 P0 R103
G1 X100.0 E12.5  F1000.0 ; intro line
G92 E0.0
M221 S95
M900 K30 ; Filament gcode
G21 ; set units to millimeters
G90 ; use absolute coordinates
M83 ; use relative distances for extrusion
;BEFORE_LAYER_CHANGE
G92 E0.0
;0.2


G1 E-0.80000 F2100.00000
G1 Z0.600 F10800.000
;AFTER_LAYER_CHANGE
;0.2
G1 X94.209 Y79.670
G1 Z0.200
G1 E0.80000 F2100.00000
M204 S1000
G1 F1200
G1 X94.640 Y79.333 E0.01714
G1 X95.140 Y79.114 E0.01714
G1 X95.684 Y79.025 E0.01726
G1 X123.666 Y79.023 E0.87738
G1 X124.452 Y79.169 E0.02507
G1 X125.136 Y79.591 E0.02518
G1 X125.621 Y80.227 E0.02507
G1 X125.844 Y80.998 E0.02518
G1 X125.855 Y101.247 E0.63490
G1 X123.582 Y126.765 E0.80324
G1 X123.486 Y127.229 E0.01487
G1 X123.292 Y127.662 E0.01487
G1 X122.956 Y128.098 E0.01726
G1 X122.519 Y128.438 E0.01737
G1 X122.011 Y128.658 E0.01737
G1 X121.463 Y128.743 E0.01737
G1 X113.879 Y128.913 E0.23787
G1 X97.245 Y128.913 E0.52153
G1 X95.370 Y128.708 E0.05916
G1 X94.654 Y128.442 E0.02394
G1 X94.213 Y128.101 E0.01749
G1 X93.873 Y127.659 E0.01749
G1 X93.655 Y127.145 E0.01749
G1 X93.574 Y126.590 E0.01760
G1 X93.574 Y81.197 E1.42326
G1 X93.653 Y80.631 E0.01794
G1 X93.875 Y80.104 E0.01794
G1 X94.172 Y79.718 E0.01526
; PURGING FINISHED
G1 F8640
G1 X94.640 Y79.333 E-0.13972
G1 X95.140 Y79.114 E-0.12626
G1 X95.684 Y79.025 E-0.12709
G1 X97.273 Y79.025 E-0.36693
G1 E-0.04000 F2100.00000
G1 Z0.800 F10800.000
G1 X103.304 Y84.004
G1 Z0.200
G1 E0.80000 F2100.00000
G1 F1200
G1 X103.304 Y81.212 E0.08756
G1 X104.058 Y81.212 E0.02365
G1 X104.058 Y83.835 E0.08223
G1 X104.812 Y83.835 E0.02365
G1 X104.812 Y81.212 E0.08223
G1 X105.567 Y81.212 E0.02365
G1 X105.567 Y83.835 E0.08223
G1 X106.321 Y83.835 E0.02365
G1 X106.321 Y81.212 E0.08223
G1 X107.075 Y81.212 E0.02365
G1 X107.075 Y83.835 E0.08223
G1 X107.754 Y83.835 E0.02130
G1 X107.754 Y86.086 E0.07060
G1 X107.829 Y86.086 E0.00234
G1 X107.829 Y81.212 E0.15284
G1 X108.583 Y81.212 E0.02365
G1 X108.583 Y86.086 E0.15284
G1 X109.337 Y86.086 E0.02365
G1 X109.337 Y81.212 E0.15284
G1 X110.091 Y81.212 E0.02365
G1 X110.091 Y86.086 E0.15284
G1 X110.846 Y86.086 E0.02365
G1 X110.846 Y81.212 E0.15284
G1 X111.600 Y81.212 E0.02365
G1 X111.600 Y126.725 E1.42703
G1 X110.846 Y126.725 F10800.000
G1 F1200
G1 X110.846 Y96.914 E0.93471
G1 X110.091 Y96.914 E0.02365
G1 X110.091 Y126.555 E0.92939
G1 X109.337 Y126.555 E0.02365
G1 X109.337 Y96.914 E0.92939
G1 X108.583 Y96.914 E0.02365
G1 X108.583 Y126.555 E0.92939
G1 X107.829 Y126.555 E0.02365
G1 X107.829 Y96.914 E0.92939
G1 X107.754 Y96.914 E0.00234
G1 X107.754 Y98.437 E0.04775
G1 X107.075 Y98.437 E0.02131
G1 X107.075 Y126.555 E0.88164
G1 X106.321 Y126.555 E0.02365
G1 X106.321 Y98.437 E0.88164
G1 X105.567 Y98.437 E0.02365
G1 X105.567 Y126.555 E0.88164
G1 X104.812 Y126.555 E0.02365
G1 X104.812 Y98.437 E0.88164
G1 X104.058 Y98.437 E0.02365
G1 X104.058 Y126.555 E0.88164
G1 X103.304 Y126.555 E0.02365
G1 X103.304 Y98.267 E0.88696
G1 X102.821 Y98.232 F10800.000
G1 F1200
G1 X102.821 Y84.182 E0.35875
G1 X103.338 Y84.182 E0.01322
G1 X103.338 Y98.089 E0.35510
G1 X103.856 Y98.089 E0.01322
G1 X103.856 Y84.182 E0.35510
G1 X104.374 Y84.182 E0.01322
G1 X104.374 Y98.232 E0.35875
G1 F8640
G1 X104.374 Y94.941 E-0.76000
G1 E-0.04000 F2100.00000
G1 Z0.800 F10800.000
G1 X106.963 Y98.232
G1 Z0.200
G1 E0.80000 F2100.00000
G1 F1200
G1 X106.963 Y96.884 E0.03442
G1 X106.445 Y96.884 E0.01322
G1 X106.445 Y98.089 E0.03077
G1 X105.927 Y98.089 E0.01322
G1 X105.927 Y96.838 E0.03195
G1 X105.643 Y96.838 E0.00726
G1 X105.610 Y96.805 E0.00119
G1 X105.610 Y96.838 E0.00084
G1 X105.410 Y96.838 E0.00512
G1 X105.410 Y98.089 E0.03195
G1 X104.892 Y98.089 E0.01322
G1 X104.892 Y96.688 E0.03577
G1 X104.712 Y96.508 E0.00650
G1 X104.712 Y86.492 E0.25575
G1 X104.892 Y86.312 E0.00650
G1 X104.892 Y84.182 E0.05438
G1 X105.410 Y84.182 E0.01322
G1 X105.410 Y86.162 E0.05056
G1 X105.610 Y86.162 E0.00512
G1 X105.610 Y86.195 E0.00084
G1 X105.643 Y86.162 E0.00119
G1 X105.927 Y86.162 E0.00726
G1 X105.927 Y84.182 E0.05056
G1 X106.445 Y84.182 E0.01322
G1 X106.445 Y86.116 E0.04938
G1 X106.963 Y86.116 E0.01322
G1 X106.963 Y84.039 E0.05303
G1 F8640
G1 X106.963 Y86.116 E-0.47958
G1 X106.445 Y86.116 E-0.11956
G1 X106.445 Y85.419 E-0.16086
G1 E-0.04000 F2100.00000
G1 Z0.800 F10800.000
G1 X107.075 Y86.294
G1 Z0.200
G1 E0.80000 F2100.00000
G1 F1200
G1 X107.075 Y89.086 E0.08755
G1 X106.321 Y89.086 E0.02365
G1 X106.321 Y86.496 E0.08123
G1 X105.979 Y86.837 E0.01515
G1 X105.979 Y86.510 E0.01027
G1 X105.787 Y86.510 E0.00602
G1 X105.661 Y86.636 E0.00559
G1 X105.661 Y86.914 E0.00873
G1 X105.567 Y86.914 E0.00296
G1 X105.567 Y96.087 E0.28761
G1 X105.661 Y96.087 E0.00296
G1 X105.661 Y96.364 E0.00869
G1 X105.787 Y96.490 E0.00559
G1 X105.979 Y96.490 E0.00602
G1 X105.979 Y96.163 E0.01027
G1 X106.321 Y96.504 E0.01515
G1 X106.321 Y93.914 E0.08123
G1 X107.075 Y93.914 E0.02365
G1 X107.075 Y96.706 E0.08755
G1 F8640
G1 X107.075 Y93.914 E-0.64477
G1 X106.576 Y93.914 E-0.11523
G1 E-0.04000 F2100.00000
G1 Z0.800 F10800.000
G1 X112.141 Y96.741
G1 Z0.200
G1 E0.80000 F2100.00000
G1 F1200
G1 X112.141 Y98.089 E0.03442
G1 X112.659 Y98.089 E0.01322
G1 X112.659 Y96.838 E0.03195
G1 X112.857 Y96.838 E0.00505
G1 X112.890 Y96.805 E0.00119
G1 X112.890 Y96.838 E0.00084
G1 X113.177 Y96.838 E0.00732
G1 X113.177 Y98.089 E0.03195
G1 X113.695 Y98.089 E0.01322
G1 X113.695 Y84.182 E0.35510
G1 X114.212 Y84.182 E0.01322
G1 X114.212 Y98.232 E0.35875
G1 F8640
G1 X114.212 Y94.941 E-0.76000
G1 E-0.04000 F2100.00000
G1 Z0.800 F10800.000
G1 X112.354 Y98.267
G1 Z0.200
G1 E0.80000 F2100.00000
G1 F1200
G1 X112.354 Y126.555 E0.88696
G1 X113.108 Y126.555 E0.02365
G1 X113.108 Y98.437 E0.88164
G1 X113.862 Y98.437 E0.02365
G1 X113.862 Y126.725 E0.88696
G1 X102.550 Y126.725 F10800.000
G1 F1200
G1 X102.550 Y81.212 E1.42703
G1 X101.796 Y81.212 E0.02365
G1 X101.796 Y126.555 E1.42171
G1 X101.042 Y126.555 E0.02365
G1 X101.042 Y81.212 E1.42171
G1 X100.287 Y81.212 E0.02365
G1 X100.287 Y126.555 E1.42171
G1 X99.533 Y126.555 E0.02365
G1 X99.533 Y81.212 E1.42171
G1 X98.779 Y81.212 E0.02365
G1 X98.779 Y126.555 E1.42171
M73 Q1 S102
M73 P1 R102
G1 X98.025 Y126.555 E0.02365
G1 X98.025 Y81.212 E1.42171
G1 X97.271 Y81.212 E0.02365
G1 X97.271 Y101.059 E0.62230
G1 X96.517 Y101.059 E0.02365
G1 X96.517 Y81.212 E0.62230
G1 X95.762 Y81.212 E0.02365
G1 X95.762 Y101.229 E0.62762
G1 F8640
G1 X95.762 Y97.938 E-0.76000
G1 E-0.04000 F2100.00000
G1 Z0.800 F10800.000
G1 X95.762 Y118.127
G1 Z0.200
G1 E0.80000 F2100.00000
G1 F1200
G1 X95.762 Y126.555 E0.26426
G1 X96.517 Y126.555 E0.02365
G1 X96.517 Y118.297 E0.25894
G1 X97.271 Y118.297 E0.02365
G1 X97.271 Y126.725 E0.26426
G1 F8640
G1 X97.271 Y123.433 E-0.76000
G1 E-0.04000 F2100.00000
G1 Z0.800 F10800.000
G1 X123.666 Y101.229
G1 Z0.200
G1 E0.80000 F2100.00000
G1 F1200
G1 X123.666 Y81.212 E0.62762
G1 X122.912 Y81.212 E0.02365
G1 X122.912 Y101.059 E0.62230
G1 X122.158 Y101.059 E0.02365
G1 X122.158 Y81.212 E0.62230
G1 X121.404 Y81.212 E0.02365
G1 X121.404 Y126.555 E1.42171
G1 X120.650 Y126.555 E0.02365
G1 X120.650 Y81.212 E1.42171
G1 X119.896 Y81.212 E0.02365
G1 X119.896 Y126.555 E1.42171
G1 X119.141 Y126.555 E0.02365
G1 X119.141 Y81.212 E1.42171
G1 X118.387 Y81.212 E0.02365
G1 X118.387 Y126.555 E1.42171
G1 X117.633 Y126.555 E0.02365
G1 X117.633 Y81.212 E1.42171
G1 X116.879 Y81.212 E0.02365
G1 X116.879 Y126.555 E1.42171
G1 X116.125 Y126.555 E0.02365
G1 X116.125 Y81.212 E1.42171
G1 X115.371 Y81.212 E0.02365
G1 X115.371 Y126.555 E1.42171
G1 X114.616 Y126.555 E0.02365
G1 X114.616 Y81.212 E1.42171
G1 X113.862 Y81.212 E0.02365
G1 X113.862 Y83.835 E0.08223
G1 X113.108 Y83.835 E0.02365
G1 X113.108 Y81.212 E0.08224
G1 X112.354 Y81.212 E0.02365
G1 X112.354 Y83.835 E0.08224
G1 X111.695 Y83.835 E0.02066
G1 X111.695 Y86.464 E0.08243
G1 X112.147 Y86.464 E0.01418
G1 X112.354 Y86.670 E0.00916
G1 X112.354 Y96.330 E0.30287
G1 X112.521 Y96.163 E0.00740
G1 X112.521 Y96.490 E0.01027
G1 X112.713 Y96.490 E0.00602
G1 X112.839 Y96.364 E0.00559
G1 X112.839 Y96.087 E0.00869
G1 X113.108 Y96.086 E0.00844
G1 X113.108 Y86.340 E0.30558
G1 X113.177 Y86.305 F10800.000
G1 F1200
G1 X113.177 Y84.182 E0.05421
G1 X112.659 Y84.182 E0.01322
G1 X112.659 Y86.162 E0.05056
G1 X112.337 Y86.162 E0.00821
G1 X112.291 Y86.116 E0.00167
G1 X112.141 Y86.116 E0.00383
G1 X112.141 Y84.039 E0.05303
G1 F8640
G1 X112.141 Y86.116 E-0.47958
G1 X112.291 Y86.116 E-0.03467
G1 X112.337 Y86.162 E-0.01506
G1 X112.659 Y86.162 E-0.07424
G1 X112.659 Y85.485 E-0.15645
G1 E-0.04000 F2100.00000
G1 Z0.800 F10800.000
G1 X110.348 Y87.087
G1 Z0.200
G1 E0.80000 F2100.00000
G1 F1200
G1 X110.348 Y95.913 E0.27673
G1 X108.152 Y95.913 E0.06885
G1 X108.152 Y87.087 E0.27673
G1 X110.288 Y87.087 E0.06697
G1 X110.725 Y86.710 F10800.000
G1 F1200
G1 X110.725 Y96.290 E0.30037
G1 X107.775 Y96.290 E0.09250
G1 X107.775 Y86.710 E0.30037
G1 X110.665 Y86.710 E0.09062
G1 X110.685 Y87.108 F10800.000
G1 F8640
G1 X110.686 Y90.001 E-0.76000
G1 E-0.04000 F2100.00000
G1 Z0.800 F10800.000
G1 X110.235 Y88.003
G1 Z0.200
G1 E0.80000 F2100.00000
G1 F1200
G1 X109.602 Y87.370 E0.02949
G1 X109.042 Y87.370 E0.01846
G1 X110.065 Y88.393 E0.04769
G1 X110.065 Y88.954 E0.01846
G1 X108.481 Y87.370 E0.07379
G1 X108.435 Y87.370 E0.00153
G1 X108.435 Y87.884 E0.01692
G1 X110.065 Y89.514 E0.07595
G1 X110.065 Y90.074 E0.01846
G1 X108.435 Y88.444 E0.07595
G1 X108.435 Y89.004 E0.01846
G1 X110.065 Y90.635 E0.07595
G1 X110.065 Y91.195 E0.01846
G1 X108.435 Y89.564 E0.07595
G1 X108.435 Y90.125 E0.01846
G1 X110.065 Y91.755 E0.07595
G1 X110.065 Y92.315 E0.01846
G1 X108.435 Y90.685 E0.07595
G1 X108.435 Y91.245 E0.01846
G1 X110.065 Y92.876 E0.07595
G1 X110.065 Y93.436 E0.01846
G1 X108.435 Y91.805 E0.07595
G1 X108.435 Y92.366 E0.01846
G1 X110.065 Y93.996 E0.07595
G1 X110.065 Y94.556 E0.01846
G1 X108.435 Y92.926 E0.07595
G1 X108.435 Y93.486 E0.01846
G1 X110.065 Y95.117 E0.07595
G1 X110.065 Y95.630 E0.01692
G1 X110.019 Y95.630 E0.00154
G1 X108.435 Y94.046 E0.07378
G1 X108.435 Y94.607 E0.01846
G1 X109.458 Y95.630 E0.04768
G1 X108.898 Y95.630 E0.01846
G1 X108.265 Y94.997 E0.02949
M106 S255
;BEFORE_LAYER_CHANGE
G92 E0.0
;0.342229


G1 F8640
G1 X108.898 Y95.630 E-0.20668
G1 X109.458 Y95.630 E-0.12936
G1 X108.435 Y94.607 E-0.33422
G1 X108.435 Y94.218 E-0.08974
G1 E-0.04000 F2100.00000
G1 Z0.800 F10800.000
;AFTER_LAYER_CHANGE
;0.342229
; PURGING FINISHED
G1 X106.963 Y98.232
G1 Z0.342
G1 E0.80000 F2100.00000
G1 F2239
G1 X106.963 Y96.884 E0.02547
G1 X106.445 Y96.884 E0.00978
G1 X106.445 Y98.089 E0.02277
G1 X105.927 Y98.089 E0.00978
G1 X105.927 Y96.884 E0.02277
G1 X105.492 Y96.884 E0.00822
G1 X105.446 Y96.838 E0.00123
G1 X105.410 Y96.838 E0.00069
G1 X105.410 Y98.089 E0.02364
G1 X104.892 Y98.089 E0.00978
G1 X104.892 Y96.688 E0.02647
G1 X104.712 Y96.508 E0.00481
G1 X104.712 Y86.492 E0.18922
G1 X104.892 Y86.312 E0.00481
G1 X104.892 Y84.182 E0.04023
G1 X105.410 Y84.182 E0.00978
G1 X105.410 Y86.162 E0.03741
G1 X105.446 Y86.162 E0.00069
G1 X105.492 Y86.116 E0.00123
G1 X105.927 Y86.116 E0.00822
G1 X105.927 Y84.182 E0.03654
G1 X106.445 Y84.182 E0.00978
G1 X106.445 Y86.116 E0.03654
G1 X106.963 Y86.116 E0.00978
G1 X106.963 Y84.039 E0.03924
G1 F8640
G1 X106.963 Y86.116 E-0.47958
G1 X106.445 Y86.116 E-0.11956
G1 X106.445 Y85.419 E-0.16086
G1 E-0.04000 F2100.00000
G1 Z0.942 F10800.000
G1 X112.141 Y84.039
G1 Z0.342
G1 E0.80000 F2100.00000
G1 F2239
G1 X112.141 Y86.116 E0.03924
G1 X112.659 Y86.116 E0.00978
G1 X112.659 Y84.182 E0.03654
G1 X113.177 Y84.182 E0.00978
G1 X113.177 Y86.305 E0.04011
G1 X121.457 Y84.182 F10800.000
G1 F2239
G1 X116.996 Y84.182 E0.08427
G1 X116.996 Y86.500 E0.04379
G1 X121.314 Y86.500 E0.08157
G1 X121.314 Y88.818 E0.04379
G1 X116.996 Y88.818 E0.08157
G1 X116.996 Y91.136 E0.04379
G1 X121.314 Y91.136 E0.08157
G1 X121.314 Y93.453 E0.04379
G1 X116.996 Y93.453 E0.08157
G1 X116.996 Y95.771 E0.04379
G1 X121.314 Y95.771 E0.08157
G1 X121.314 Y98.089 E0.04379
G1 X116.996 Y98.089 E0.08157
G1 X116.996 Y98.407 E0.00600
G1 X111.725 Y98.407 E0.09958
G1 X111.725 Y98.089 E0.00600
G1 X107.725 Y98.089 E0.07556
G1 X107.725 Y98.407 E0.00600
G1 X102.453 Y98.407 E0.09958
G1 X102.453 Y98.089 E0.00600
G1 X98.136 Y98.089 E0.08157
G1 X98.136 Y95.771 E0.04379
G1 X102.453 Y95.771 E0.08157
G1 X102.453 Y93.453 E0.04379
G1 X98.136 Y93.453 E0.08157
G1 X98.136 Y91.136 E0.04379
G1 X102.453 Y91.136 E0.08157
G1 X102.453 Y88.818 E0.04379
G1 X98.136 Y88.818 E0.08157
G1 X98.136 Y86.500 E0.04379
G1 X102.453 Y86.500 E0.08157
G1 X102.453 Y84.182 E0.04379
G1 X97.993 Y84.182 E0.08427
G1 F8640
G1 X101.284 Y84.182 E-0.76000
G1 E-0.04000 F2100.00000
G1 Z0.942 F10800.000
G1 X102.821 Y98.232
G1 Z0.342
G1 E0.80000 F2100.00000
G1 F2239
G1 X102.821 Y84.182 E0.26542
G1 X103.338 Y84.182 E0.00978
G1 X103.338 Y98.089 E0.26272
G1 X103.856 Y98.089 E0.00978
G1 X103.856 Y84.182 E0.26272
G1 X104.374 Y84.182 E0.00978
G1 X104.374 Y98.232 E0.26542
G1 F8640
G1 X104.374 Y94.941 E-0.76000
G1 E-0.04000 F2100.00000
G1 Z0.942 F10800.000
G1 X112.141 Y96.741
G1 Z0.342
G1 E0.80000 F2100.00000
G1 F2239
G1 X112.141 Y98.089 E0.02547
G1 X112.659 Y98.089 E0.00978
G1 X112.659 Y96.884 E0.02277
G1 X113.008 Y96.884 E0.00659
G1 X113.054 Y96.838 E0.00123
G1 X113.177 Y96.838 E0.00232
G1 X113.177 Y98.089 E0.02364
G1 X113.695 Y98.089 E0.00978
G1 X113.695 Y84.182 E0.26272
G1 X114.212 Y84.182 E0.00978
G1 X114.212 Y98.089 E0.26272
G1 X114.730 Y98.089 E0.00978
G1 X114.730 Y84.182 E0.26272
G1 X115.248 Y84.182 E0.00978
G1 X115.248 Y98.089 E0.26272
G1 X115.766 Y98.089 E0.00978
G1 X115.766 Y84.182 E0.26272
G1 X116.284 Y84.182 E0.00978
G1 X116.284 Y98.232 E0.26542
G1 X119.139 Y100.407 F10800.000
G1 F2239
G1 X100.453 Y100.407 E0.35299
G1 X100.453 Y102.725 E0.04379
G1 X118.996 Y102.725 E0.35029
G1 X118.996 Y105.042 E0.04379
G1 X100.453 Y105.042 E0.35029
G1 X100.453 Y107.360 E0.04379
G1 X118.996 Y107.360 E0.35029
G1 X118.996 Y109.678 E0.04379
G1 X100.453 Y109.678 E0.35029
G1 X100.453 Y111.996 E0.04379
G1 X118.996 Y111.996 E0.35029
G1 X118.996 Y114.314 E0.04379
G1 X100.453 Y114.314 E0.35029
G1 X100.453 Y116.632 E0.04379
G1 X118.996 Y116.632 E0.35029
G1 X118.996 Y118.949 E0.04379
G1 X100.453 Y118.949 E0.35029
G1 X100.453 Y121.267 E0.04379
G1 X98.136 Y121.267 E0.04379
G1 X118.996 Y121.267 E0.39408
M73 Q2 S101
M73 P2 R101
G1 X118.996 Y123.585 E0.04379
G1 X97.993 Y123.585 E0.39678
;BEFORE_LAYER_CHANGE
G92 E0.0
;0.35


G1 F8640
G1 X101.284 Y123.585 E-0.76000
G1 E-0.04000 F2100.00000
G1 Z0.942 F10800.000
;AFTER_LAYER_CHANGE
;0.35
G1 X94.654 Y128.442
G1 Z0.350
G1 E0.80000 F2100.00000
G1 F900
G1 X94.213 Y128.101 E0.01349
G1 X93.873 Y127.659 E0.01349
G1 X93.655 Y127.145 E0.01349
G1 X93.574 Y126.590 E0.01357
G1 X93.574 Y81.197 E1.09782
G1 X93.653 Y80.631 E0.01384
G1 X93.875 Y80.104 E0.01384
G1 X94.209 Y79.670 E0.01322
G1 X94.640 Y79.333 E0.01322
G1 X95.140 Y79.114 E0.01322
G1 X95.684 Y79.025 E0.01331
G1 X123.666 Y79.023 E0.67676
G1 X124.452 Y79.169 E0.01934
G1 X125.136 Y79.591 E0.01942
G1 X125.621 Y80.227 E0.01934
G1 X125.844 Y80.998 E0.01942
G1 X125.855 Y101.247 E0.48973
G1 X123.582 Y126.765 E0.61957
G1 X123.486 Y127.229 E0.01147
G1 X123.292 Y127.662 E0.01147
